%_N_Part1_MPF
;$PATH=/_N_MPF_DIR

; Generated by CAM
; Date: 15/12/2024
; Time: 17:38:54

; Tools list
; T7 = Fraise torique D10 L50, Ø10 R1 mm Fraise torique
; T25 = ISCAR D25 D25 L60, ISCAR D25
; T74 = Foret D15,5 L204,5, 15.5mm Foret

; Workpiece list
; Configuration 1
;   G54 = X0 Y0 Z200 A0 B0 C0
;   WRK = X-102 Y-62 Z-67 DX204 DY124 DZ69

;Usinage Trous 1
N10 T="T74"; 15.5mm Foret
N20 M6
N30 G17 G54
N40 S1600 M3
N50 G0 B0 C0
N60 Y0
N70 X0 Z12
N80 M8 F200
N90 MCALL CYCLE81(12,-0,1.55,-65)
N100 X0 Y0
N110 MCALL
N120 M5 M9
N130 SUPA Z0 D0
N140 SUPA X0 Y0
N150 M1

;Ebauche Ligne d'Eau 1
N160 T="T25"; ISCAR D25
N170 M6
N180 G17 G54
N190 S2550 M3
N200 G0 B0 C0
N210 Y57.653
N220 X-116.713 Z12
N230 G1 Z1.4 M8 F4590
N240 X-114.169 Y60.868
N250 G2 X-100.871 Y74.165 I=AC(-50.788) J=AC(10.785)
N260 G3 X-104.599 Y77.356 I=AC(-102.423) J=AC(76.126)
N270 G1 X-113.225 Y62.077
N280 G3 X-114.331 Y58.692 I=AC(-103.147) J=AC(56.911)
N290 G1 X-119.096 Y24.147
N300 G3 X-114.472 Y22.526 I=AC(-116.619) J=AC(23.805)
N310 X-114.169 Y23.311 I=AC(-116.619) J=AC(23.805)
N320 G2 X-63.314 Y74.165 I=AC(-50.471) J=AC(10.468)
N330 G3 X-59.823 Y76.722 I=AC(-64.334) J=AC(79.22)
N340 X-63.177 Y80.144 Z1.5 I=AC(-62.01) J=AC(77.933) TURN=0
N350 G1 X-82.493 Y69.949 F13770
N360 G3 X-116.473 Y24.845 I=AC(-50.49) J=AC(10.487)
N370 X-116.719 Y22.621 I=AC(-103.147) J=AC(22.249)
N380 G1 X-116.717 Y-61.937
N390 G3 X-113.744 Y-70.344 I=AC(-101.858) J=AC(-61.411)
N400 X-110.353 Y-73.853 I=AC(-101.71) J=AC(-62.108)
N410 G1 X-100.639 Y-80.721
N420 G3 X-97.645 Y-76.719 Z1.4 I=AC(-99.196) J=AC(-78.679) TURN=0 F4590
N430 G1 X-100.871 Y-74.165
N440 G2 X-114.169 Y-60.868 I=AC(-50.788) J=AC(-10.785)
N450 G3 X-117.359 Y-64.596 I=AC(-116.129) J=AC(-62.419)
N460 G1 X-102.08 Y-73.222
N470 G3 X-98.695 Y-74.328 I=AC(-96.914) J=AC(-63.144)
N480 G1 X-64.15 Y-79.093
N490 G3 X-62.534 Y-74.466 I=AC(-63.808) J=AC(-76.616)
N500 X-63.314 Y-74.165 I=AC(-63.808) J=AC(-76.616)
N510 G2 X-114.169 Y-23.311 I=AC(-50.471) J=AC(-10.468)
N520 G3 X-116.726 Y-19.819 I=AC(-119.223) J=AC(-24.331)
N530 X-120.148 Y-23.174 Z1.5 I=AC(-117.937) J=AC(-22.007) TURN=0
N540 G1 X-109.952 Y-42.49 F13770
N550 G3 X-64.848 Y-76.47 I=AC(-50.49) J=AC(-10.487)
N560 X-62.251 Y-76.715 I=AC(-62.352) J=AC(-63.922)
N570 G1 X101.998 Y-76.71
N580 G3 X113.626 Y-70.523 I=AC(101.659) J=AC(-62.052)
N590 G1 X120.715 Y-60.649
N600 G3 X116.723 Y-57.639 Z1.4 I=AC(118.684) J=AC(-59.191) TURN=0 F4590
N610 G1 X114.169 Y-60.868
N620 G2 X100.871 Y-74.165 I=AC(50.788) J=AC(-10.785)
N630 G3 X104.599 Y-77.356 I=AC(102.423) J=AC(-76.126)
N640 G1 X113.225 Y-62.077
N650 G3 X114.331 Y-58.692 I=AC(103.147) J=AC(-56.911)
N660 G1 X119.096 Y-24.147
N670 G3 X114.472 Y-22.526 I=AC(116.619) J=AC(-23.805)
N680 X114.169 Y-23.311 I=AC(116.619) J=AC(-23.805)
N690 G2 X63.314 Y-74.165 I=AC(50.471) J=AC(-10.468)
N700 G3 X59.823 Y-76.722 I=AC(64.334) J=AC(-79.22)
N710 X63.177 Y-80.144 Z1.5 I=AC(62.01) J=AC(-77.933) TURN=0
N720 G1 X82.493 Y-69.949 F13770
N730 G3 X116.473 Y-24.845 I=AC(50.49) J=AC(-10.487)
N740 X116.719 Y-22.248 I=AC(103.925) J=AC(-22.349)
N750 G1 X116.715 Y61.993
N760 G3 X113.741 Y70.348 I=AC(101.937) J=AC(61.44)
N770 X110.354 Y73.853 I=AC(101.71) J=AC(62.109)
N780 G1 X100.639 Y80.721
N790 G3 X97.645 Y76.719 Z1.4 I=AC(99.196) J=AC(78.679) TURN=0 F4590
N800 G1 X100.871 Y74.165
N810 G2 X114.169 Y60.868 I=AC(50.788) J=AC(10.785)
N820 G3 X117.359 Y64.596 I=AC(116.129) J=AC(62.419)
N830 G1 X102.08 Y73.222
N840 G3 X98.695 Y74.328 I=AC(96.914) J=AC(63.144)
N850 G1 X64.15 Y79.093
N860 G3 X62.534 Y74.466 I=AC(63.808) J=AC(76.616)
N870 X63.314 Y74.165 I=AC(63.808) J=AC(76.616)
N880 G2 X114.169 Y23.311 I=AC(50.471) J=AC(10.468)
N890 X111.072 Y20.401 I=AC(111.718) J=AC(22.816)
N900 G1 X101.336 Y23.005
N910 G3 X98.24 Y20.096 I=AC(100.69) J=AC(20.59)
N920 G2 X99.203 Y10.45 I=AC(51.557) J=AC(10.561)
N930 G1 Y-11.049
N940 G2 X50.454 Y-59.2 I=AC(50.462) J=AC(-10.455)
N950 G1 X-51.052
N960 G2 X-99.203 Y-10.45 I=AC(-50.459) J=AC(-10.459)
N970 G1 Y11.049
N980 G2 X-50.454 Y59.2 I=AC(-50.462) J=AC(10.455)
N990 G1 X51.214
N1000 G2 X91.414 Y36.885 I=AC(50.466) J=AC(10.486)
N1010 X91.488 Y34.296 I=AC(89.314) J=AC(35.529)
N1020 G1 X82.587 Y18.609
N1030 G3 X82.311 Y16.881 I=AC(84.762) J=AC(17.375)
N1040 G2 X82.953 Y10.45 I=AC(51.189) J=AC(10.524)
N1050 G1 Y-10.849
N1060 G2 X50.454 Y-42.95 I=AC(50.459) J=AC(-10.454)
N1070 G1 X-50.852
N1080 G2 X-82.953 Y-10.45 I=AC(-50.457) J=AC(-10.456)
N1090 G1 Y10.849
N1100 G2 X-50.454 Y42.95 I=AC(-50.459) J=AC(10.454)
N1110 G1 X50.867
N1120 G2 X74.07 Y32.778 I=AC(50.46) J=AC(10.475)
N1130 X74.454 Y29.875 I=AC(72.253) J=AC(31.061)
N1140 G1 X66.632 Y15.345
N1150 G3 X66.382 Y13.665 I=AC(68.833) J=AC(14.16)
N1160 G2 X66.703 Y10.45 I=AC(51.803) J=AC(10.585)
N1170 G1 Y-10.849
N1180 G2 X50.454 Y-26.7 I=AC(50.465) J=AC(-10.457)
N1190 G1 X-50.852
N1200 G2 X-66.703 Y-10.45 I=AC(-50.46) J=AC(-10.462)
N1210 G1 Y10.849
N1220 G2 X-50.454 Y26.7 I=AC(-50.465) J=AC(10.457)
N1230 G1 X50.706
N1240 G2 X54.458 Y26.199 I=AC(50.473) J=AC(10.664)
N1250 X56.069 Y22.639 I=AC(53.842) J=AC(23.776)
N1260 G1 X50.678 Y12.082
N1270 G3 X50.453 Y10.45 I=AC(52.904) J=AC(10.945)
N1280 G1 Y-10.45
N1290 X-50.453
N1300 Y10.45
N1310 X50.453
N1320 G3 X55.022 Y9.616 Z1.5 I=AC(52.904) J=AC(10.945) TURN=0
N1330 G1 X97.269 Y76.958 F13770
N1340 X97.28 Y76.976 F4590
N1350 Z1.4
N1360 Z0.8
N1370 X100.521 Y74.441
N1380 G2 X114.441 Y60.521 I=AC(50.786) J=AC(10.786)
N1390 G3 X117.671 Y64.22 I=AC(116.41) J=AC(62.062)
N1400 G1 X102.174 Y73.277
N1410 G3 X97.864 Y74.673 I=AC(96.6) J=AC(63.419)
N1420 G1 X62.642 Y79.379
N1430 G3 X61.062 Y74.736 I=AC(62.311) J=AC(76.901)
N1440 X61.872 Y74.44 I=AC(62.311) J=AC(76.901)
N1450 G2 X114.441 Y21.872 I=AC(50.469) J=AC(10.469)
N1460 G3 X116.991 Y18.283 I=AC(119.517) J=AC(22.778)
N1470 G2 X118.266 Y16.077 Z0.9 I=AC(115.766) J=AC(16.103) TURN=0
N1480 G1 X117.525 Y-55.742 F13770
N1490 G2 X116.994 Y-57.257 Z0.8 I=AC(115.025) J=AC(-55.717) TURN=0 F4590
N1500 G1 X114.435 Y-60.527
N1510 G2 X100.523 Y-74.438 I=AC(50.786) J=AC(-10.784)
N1520 G3 X104.222 Y-77.668 I=AC(102.063) J=AC(-76.407)
N1530 G1 X113.277 Y-62.172
N1540 G3 X114.673 Y-57.863 I=AC(103.419) J=AC(-56.598)
N1550 G1 X119.38 Y-22.641
N1560 G3 X114.744 Y-21.047 I=AC(116.902) J=AC(-22.31)
N1570 X114.441 Y-21.871 I=AC(116.902) J=AC(-22.31)
N1580 G2 X61.874 Y-74.438 I=AC(50.469) J=AC(-10.467)
N1590 G3 X58.283 Y-76.99 I=AC(62.78) J=AC(-79.515)
N1600 G2 X56.091 Y-78.266 Z0.9 I=AC(56.103) J=AC(-75.766) TURN=0
N1610 G1 X-95.737 Y-77.52 F13770
N1620 G2 X-97.265 Y-76.988 Z0.8 I=AC(-95.724) J=AC(-75.02) TURN=0 F4590
N1630 G1 X-100.524 Y-74.438
N1640 G2 X-114.441 Y-60.521 I=AC(-50.786) J=AC(-10.786)
N1650 G3 X-117.671 Y-64.22 I=AC(-116.41) J=AC(-62.062)
N1660 G1 X-102.174 Y-73.277
N1670 G3 X-97.864 Y-74.673 I=AC(-96.6) J=AC(-63.419)
N1680 G1 X-62.642 Y-79.379
N1690 G3 X-61.063 Y-74.735 I=AC(-62.311) J=AC(-76.901)
N1700 X-61.872 Y-74.44 I=AC(-62.311) J=AC(-76.901)
N1710 G2 X-114.441 Y-21.872 I=AC(-50.469) J=AC(-10.469)
N1720 G3 X-116.99 Y-18.283 I=AC(-119.517) J=AC(-22.778)
N1730 G2 X-118.265 Y-16.078 Z0.9 I=AC(-115.765) J=AC(-16.104) TURN=0
N1740 G1 X-117.525 Y55.742 F13770
N1750 G2 X-116.994 Y57.257 Z0.8 I=AC(-115.025) J=AC(55.717) TURN=0 F4590
N1760 G1 X-114.435 Y60.527
N1770 G2 X-100.523 Y74.438 I=AC(-50.786) J=AC(10.784)
N1780 G3 X-104.222 Y77.668 I=AC(-102.063) J=AC(76.407)
N1790 G1 X-113.277 Y62.172
N1800 G3 X-114.673 Y57.863 I=AC(-103.419) J=AC(56.598)
N1810 G1 X-119.38 Y22.641
N1820 G3 X-114.744 Y21.048 I=AC(-116.902) J=AC(22.31)
N1830 X-114.441 Y21.871 I=AC(-116.902) J=AC(22.31)
N1840 G2 X-61.874 Y74.438 I=AC(-50.469) J=AC(10.467)
N1850 X-59.034 Y71.277 I=AC(-61.434) J=AC(71.977)
N1860 G1 X-61.857 Y61.603
N1870 G3 X-59.018 Y58.441 I=AC(-59.458) J=AC(60.902)
N1880 G2 X-50.453 Y59.2 I=AC(-50.55) J=AC(11.554)
N1890 G1 X51.05 Y59.201
N1900 G2 X99.202 Y10.451 I=AC(50.457) J=AC(10.46)
N1910 G1 Y-11.048
N1920 G2 X50.453 Y-59.2 I=AC(50.46) J=AC(-10.455)
N1930 G1 X-51.05 Y-59.201
N1940 G2 X-99.202 Y-10.451 I=AC(-50.457) J=AC(-10.46)
N1950 G1 Y11.227
N1960 G2 X-75.957 Y51.995 I=AC(-50.488) J=AC(10.463)
N1970 X-73.367 Y52.011 I=AC(-74.649) J=AC(49.865)
N1980 G1 X-57.884 Y42.759
N1990 G3 X-56.163 Y42.444 I=AC(-56.602) J=AC(44.905)
N2000 G2 X-50.452 Y42.95 I=AC(-50.517) J=AC(11.186)
N2010 G1 X50.85 Y42.951
N2020 G2 X82.952 Y10.451 I=AC(50.455) J=AC(10.457)
N2030 G1 Y-10.849
N2040 G2 X50.452 Y-42.95 I=AC(50.458) J=AC(-10.453)
N2050 G1 X-50.85 Y-42.951
N2060 G2 X-82.952 Y-10.451 I=AC(-50.455) J=AC(-10.457)
N2070 G1 Y10.874
N2080 G2 X-72.242 Y34.563 I=AC(-50.476) J=AC(10.457)
N2090 X-69.331 Y34.882 I=AC(-70.566) J=AC(32.708)
N2100 G1 X-54.981 Y26.734
N2110 G3 X-53.307 Y26.447 I=AC(-53.747) J=AC(28.908)
N2120 G2 X-50.452 Y26.7 I=AC(-50.571) J=AC(11.8)
N2130 G1 X50.851 Y26.701
N2140 G2 X66.702 Y10.451 I=AC(50.459) J=AC(10.463)
N2150 G1 Y-10.849
N2160 G2 X50.452 Y-26.7 I=AC(50.463) J=AC(-10.457)
N2170 G1 X-50.851 Y-26.701
N2180 G2 X-66.702 Y-10.451 I=AC(-50.459) J=AC(-10.463)
N2190 G1 Y10.725
N2200 G2 X-66.106 Y14.808 I=AC(-50.665) J=AC(10.471)
N2210 X-62.511 Y16.338 I=AC(-63.698) J=AC(14.138)
N2220 G1 X-52.078 Y10.71
N2230 G3 X-50.452 Y10.45 I=AC(-50.891) J=AC(12.911)
N2240 G1 X50.452 Y10.451
N2250 Y-10.45
N2260 X-50.452 Y-10.451
N2270 Y10.45
N2280 G3 X-49.565 Y15.03 Z0.9 I=AC(-50.891) J=AC(12.911) TURN=0
N2290 G1 X-116.991 Y57.222 F13770
N2300 X-117.009 Y57.233 F4590
N2310 Z0.8
N2320 Z0.2
N2330 X-114.471 Y60.481
N2340 G2 X-100.484 Y74.468 I=AC(-50.786) J=AC(10.784)
N2350 G3 X-104.18 Y77.703 I=AC(-102.023) J=AC(76.438)
N2360 G1 X-113.31 Y62.132
N2370 G3 X-114.703 Y57.826 I=AC(-103.45) J=AC(56.563)
N2380 G1 X-119.412 Y22.461
N2390 G3 X-114.771 Y20.876 I=AC(-116.933) J=AC(22.131)
N2400 X-114.471 Y21.698 I=AC(-116.933) J=AC(22.131)
N2410 G2 X-61.701 Y74.469 I=AC(-50.469) J=AC(10.467)
N2420 G3 X-58.096 Y77.025 I=AC(-62.594) J=AC(79.547)
N2430 X-61.39 Y80.486 Z0.3 I=AC(-60.277) J=AC(78.248) TURN=0
N2440 G1 X-81.647 Y70.396 F13770
N2450 G3 X-116.833 Y23.072 I=AC(-50.488) J=AC(10.486)
N2460 X-117.021 Y21.123 I=AC(-103.45) J=AC(20.797)
N2470 G1 X-117.019 Y-62.359
N2480 G3 X-110.352 Y-74.478 I=AC(-101.979) J=AC(-61.979)
N2490 G1 X-100.112 Y-81.093
N2500 G3 X-97.216 Y-77.023 Z0.2 I=AC(-98.755) J=AC(-78.993) TURN=0 F4590
N2510 G1 X-100.482 Y-74.471
N2520 G2 X-114.471 Y-60.482 I=AC(-50.786) J=AC(-10.786)
N2530 G3 X-117.706 Y-64.178 I=AC(-116.441) J=AC(-62.021)
N2540 G1 X-102.134 Y-73.31
N2550 G3 X-97.828 Y-74.703 I=AC(-96.565) J=AC(-63.449)
N2560 G1 X-62.462 Y-79.411
N2570 G3 X-60.886 Y-74.766 I=AC(-62.132) J=AC(-76.933)
N2580 X-61.699 Y-74.471 I=AC(-62.132) J=AC(-76.933)
N2590 G2 X-114.471 Y-21.7 I=AC(-50.469) J=AC(-10.469)
N2600 G3 X-117.028 Y-18.094 I=AC(-119.55) J=AC(-22.592)
N2610 X-120.489 Y-21.388 Z0.3 I=AC(-118.251) J=AC(-20.275) TURN=0
N2620 G1 X-110.398 Y-41.646 F13770
N2630 G3 X-63.073 Y-76.833 I=AC(-50.488) J=AC(-10.487)
N2640 X-60.798 Y-77.021 I=AC(-60.886) J=AC(-64.228)
N2650 G1 X102.09 Y-77.018
N2660 G3 X105.946 Y-76.489 I=AC(101.795) J=AC(-60.568)
N2670 X114.564 Y-70.226 I=AC(101.998) J=AC(-61.994)
N2680 G1 X121.091 Y-60.114
N2690 G3 X117.02 Y-57.219 Z0.2 I=AC(118.99) J=AC(-58.758) TURN=0 F4590
N2700 G1 X114.471 Y-60.481
N2710 G2 X100.484 Y-74.468 I=AC(50.786) J=AC(-10.784)
N2720 G3 X104.18 Y-77.703 I=AC(102.023) J=AC(-76.438)
N2730 G1 X113.31 Y-62.132
N2740 G3 X114.703 Y-57.826 I=AC(103.45) J=AC(-56.563)
N2750 G1 X119.412 Y-22.461
N2760 G3 X114.771 Y-20.876 I=AC(116.933) J=AC(-22.131)
N2770 X114.471 Y-21.698 I=AC(116.933) J=AC(-22.131)
N2780 G2 X61.701 Y-74.469 I=AC(50.469) J=AC(-10.467)
N2790 G3 X58.096 Y-77.025 I=AC(62.594) J=AC(-79.547)
N2800 X61.39 Y-80.486 Z0.3 I=AC(60.277) J=AC(-78.248) TURN=0
N2810 G1 X81.647 Y-70.396 F13770
N2820 G3 X116.833 Y-23.072 I=AC(50.488) J=AC(-10.486)
N2830 X117.021 Y-21.123 I=AC(103.45) J=AC(-20.797)
N2840 G1 X117.017 Y62.311
N2850 G3 X110.242 Y74.551 I=AC(101.993) J=AC(61.99)
N2860 G1 X100.112 Y81.093
N2870 G3 X97.216 Y77.023 Z0.2 I=AC(98.755) J=AC(78.993) TURN=0 F4590
N2880 G1 X100.482 Y74.471
N2890 G2 X114.471 Y60.482 I=AC(50.786) J=AC(10.786)
N2900 G3 X117.706 Y64.178 I=AC(116.441) J=AC(62.021)
N2910 G1 X102.134 Y73.31
N2920 G3 X97.828 Y74.703 I=AC(96.565) J=AC(63.449)
N2930 G1 X62.462 Y79.411
N2940 G3 X60.886 Y74.766 I=AC(62.132) J=AC(76.933)
N2950 X61.699 Y74.471 I=AC(62.132) J=AC(76.933)
N2960 G2 X114.471 Y21.7 I=AC(50.469) J=AC(10.469)
N2970 X111.302 Y18.869 I=AC(112.009) J=AC(21.267)
N2980 G1 X101.635 Y21.718
N2990 G3 X98.466 Y18.887 I=AC(100.929) J=AC(19.32)
N3000 G2 X99.202 Y10.451 I=AC(51.556) J=AC(10.547)
N3010 G1 Y-11.048
N3020 G2 X50.453 Y-59.2 I=AC(50.46) J=AC(-10.455)
N3030 G1 X-51.049 Y-59.201
N3040 G2 X-99.202 Y-10.451 I=AC(-50.457) J=AC(-10.46)
N3050 G1 Y11.048
N3060 G2 X-50.453 Y59.2 I=AC(-50.46) J=AC(10.455)
N3070 G1 X51.23 Y59.201
N3080 G2 X92.067 Y35.844 I=AC(50.465) J=AC(10.487)
N3090 X92.075 Y33.253 I=AC(89.932) J=AC(34.541)
N3100 G1 X82.781 Y17.796
N3110 G3 X82.462 Y16.075 I=AC(84.924) J=AC(16.508)
N3120 G2 X82.952 Y10.451 I=AC(51.188) J=AC(10.515)
N3130 G1 Y-10.848
N3140 G2 X50.452 Y-42.95 I=AC(50.458) J=AC(-10.453)
N3150 G1 X-50.85 Y-42.951
N3160 G2 X-82.952 Y-10.451 I=AC(-50.455) J=AC(-10.457)
N3170 G1 Y10.848
N3180 G2 X-50.452 Y42.95 I=AC(-50.458) J=AC(10.453)
N3190 G1 X50.877 Y42.951
N3200 G2 X74.624 Y32.176 I=AC(50.459) J=AC(10.475)
N3210 X74.935 Y29.264 I=AC(72.765) J=AC(30.505)
N3220 G1 X66.748 Y14.936
N3230 G3 X66.457 Y13.263 I=AC(68.919) J=AC(13.696)
N3240 G2 X66.702 Y10.451 I=AC(51.802) J=AC(10.569)
N3250 G1 Y-10.848
N3260 G2 X50.452 Y-26.7 I=AC(50.463) J=AC(-10.457)
N3270 G1 X-50.851 Y-26.701
N3280 G2 X-66.702 Y-10.451 I=AC(-50.459) J=AC(-10.463)
N3290 G1 Y10.848
N3300 G2 X-50.452 Y26.7 I=AC(-50.463) J=AC(10.457)
N3310 G1 X50.73 Y26.701
N3320 G2 X54.853 Y26.094 I=AC(50.474) J=AC(10.664)
N3330 X56.373 Y22.494 I=AC(54.176) J=AC(23.687)
N3340 G1 X50.717 Y12.077
N3350 G3 X50.452 Y10.451 I=AC(52.914) J=AC(10.884)
N3360 G1 Y-10.45
N3370 X-50.452 Y-10.451
N3380 Y10.45
N3390 X50.452 Y10.451
N3400 G3 X55.04 Y9.568 Z0.3 I=AC(52.914) J=AC(10.884) TURN=0
N3410 G1 X96.764 Y76.996 F13770
N3420 X96.775 Y77.014 F4590
N3430 Z0.2
N3440 Z-0.4
N3450 X100.554 Y74.471
N3460 G2 X114.448 Y62.832 I=AC(50.809) J=AC(0.973)
N3470 G3 X117.255 Y66.862 I=AC(116.238) J=AC(64.578)
N3480 G1 X101.262 Y73.974
N3490 G3 X98.655 Y74.664 I=AC(97.084) J=AC(63.449)
N3500 G1 X68.584 Y79.439
N3510 G3 X66.992 Y74.777 I=AC(68.192) J=AC(76.97)
N3520 G1 X67.553 Y74.47
N3530 X86.907 Y63.869
N3540 G2 X114.466 Y35.849 I=AC(49.947) J=AC(-0.045)
N3550 G3 X117.006 Y33.591 I=AC(118.97) J=AC(38.359)
N3560 G2 X118.554 Y31.256 Z-0.3 I=AC(116.055) J=AC(31.279) TURN=0
N3570 G1 X117.734 Y-58.475 F13770
N3580 G2 X117.022 Y-60.198 Z-0.4 I=AC(115.234) J=AC(-58.452) TURN=0 F4590
N3590 G1 X114.446 Y-62.838
N3600 G2 X100.565 Y-74.465 I=AC(50.133) J=AC(-0.16)
N3610 G3 X104.058 Y-77.905 I=AC(101.968) J=AC(-76.534)
N3620 G1 X113.149 Y-64.032
N3630 G3 X114.59 Y-60.222 I=AC(103.449) J=AC(-58.186)
N3640 G1 X119.406 Y-37.006
N3650 G3 X114.772 Y-35.285 I=AC(116.958) J=AC(-36.498)
N3660 G1 X114.47 Y-35.83
N3670 G2 X85.615 Y-64.589 I=AC(50.08) J=AC(-0.08)
N3680 G1 X67.566 Y-74.466
N3690 G3 X65.278 Y-77.015 I=AC(70.041) J=AC(-78.99)
N3700 G2 X62.951 Y-78.557 Z-0.3 I=AC(62.968) J=AC(-76.057) TURN=0
N3710 G1 X-95.386 Y-77.452 F13770
N3720 G2 X-96.766 Y-77.025 Z-0.4 I=AC(-95.368) J=AC(-74.952) TURN=0 F4590
N3730 G1 X-100.554 Y-74.471
N3740 G2 X-114.447 Y-62.82 I=AC(-51.348) J=AC(-1.688)
N3750 G3 X-117.257 Y-66.848 I=AC(-116.238) J=AC(-64.565)
N3760 G1 X-101.265 Y-73.974
N3770 G3 X-98.658 Y-74.664 I=AC(-97.087) J=AC(-63.449)
N3780 G1 X-68.587 Y-79.439
N3790 G3 X-66.995 Y-74.777 I=AC(-68.195) J=AC(-76.97)
N3800 G1 X-67.555 Y-74.47
N3810 X-86.476 Y-64.112
N3820 G2 X-114.466 Y-35.848 I=AC(-49.973) J=AC(0.028)
N3830 G3 X-117.007 Y-33.58 I=AC(-118.977) J=AC(-38.346)
N3840 G2 X-118.552 Y-31.247 Z-0.3 I=AC(-116.052) J=AC(-31.27) TURN=0
N3850 G1 X-117.734 Y58.475 F13770
N3860 G2 X-117.022 Y60.198 Z-0.4 I=AC(-115.234) J=AC(58.452) TURN=0 F4590
N3870 G1 X-114.446 Y62.838
N3880 G2 X-100.565 Y74.465 I=AC(-50.133) J=AC(0.16)
N3890 G3 X-104.058 Y77.905 I=AC(-101.968) J=AC(76.534)
N3900 G1 X-113.149 Y64.032
N3910 G3 X-114.59 Y60.222 I=AC(-103.449) J=AC(58.186)
N3920 G1 X-119.406 Y37.006
N3930 G3 X-114.772 Y35.285 I=AC(-116.958) J=AC(36.498)
N3940 G1 X-114.47 Y35.83
N3950 G2 X-85.615 Y64.589 I=AC(-50.08) J=AC(0.08)
N3960 G1 X-67.566 Y74.466
N3970 G3 X-65.278 Y77.015 I=AC(-70.041) J=AC(78.99)
N3980 G2 X-62.966 Y78.557 Z-0.3 I=AC(-62.968) J=AC(76.057) TURN=0
N3990 G1 X28.295 Y78.487 F13770
N4000 G2 X30.567 Y77.027 Z-0.4 I=AC(28.293) J=AC(75.987) TURN=0 F4590
N4010 G3 X33.141 Y74.469 I=AC(35.256) J=AC(79.172)
N4020 G2 X38.436 Y71.876 I=AC(2.05) J=AC(4.283)
N4030 G1 X79.116 Y49.607
N4040 G2 X77.814 Y-50.334 I=AC(49.994) J=AC(0.007)
N4050 G1 X37.708 Y-72.265
N4060 G2 X33.147 Y-74.467 I=AC(0.735) J=AC(-1.516)
N4070 G1 X32.92 Y-74.567
N4080 G2 X31.934 Y-74.778 I=AC(31.914) J=AC(-72.278)
N4090 G1 X-31.078 Y-75.301
N4100 G2 X-32.632 Y-74.775 I=AC(-31.099) J=AC(-72.801)
N4110 G3 X-33.141 Y-74.469 I=AC(-34.166) J=AC(-76.749)
N4120 G2 X-38.434 Y-71.877 I=AC(-2.045) J=AC(-4.271)
N4130 G1 X-78.351 Y-50.039
N4140 G2 X-77.814 Y50.334 I=AC(-50.002) J=AC(-0.003)
N4150 G1 X-37.708 Y72.265
N4160 G2 X-33.147 Y74.467 I=AC(-0.74) J=AC(1.526)
N4170 X-29.643 Y72.063 I=AC(-32.141) J=AC(72.179)
N4180 G1 X-30.11 Y61.996
N4190 G3 X-26.606 Y59.592 I=AC(-27.612) J=AC(61.88)
N4200 G2 X30.637 Y57.62 I=AC(-0.003) J=AC(0.021)
N4210 G1 X70.889 Y35.59
N4220 G2 X70.013 Y-36.079 I=AC(49.997) J=AC(0.005)
N4230 G1 X30.258 Y-57.823
N4240 G2 X-30.636 Y-57.62 I=AC(0.003) J=AC(-0.018)
N4250 G1 X-70.225 Y-35.967
N4260 G2 X-90.163 Y-9.443 I=AC(-50.005) J=AC(-0.011)
N4270 G3 X-97.317 Y-3.988 I=AC(-97.05) J=AC(-11.056)
N4280 X-98.739 Y-8.474 Z-0.3 I=AC(-97.223) J=AC(-6.486) TURN=0
N4290 G1 X-94.113 Y-12.001
N4300 G3 X-90.163 Y-9.443 Z-0.4 I=AC(-92.597) J=AC(-10.013) TURN=0
N4310 G2 X-70.013 Y36.079 I=AC(-50.015) J=AC(0.006)
N4320 G1 X-42.844 Y50.946
N4330 G2 X-40.836 Y51.119 I=AC(-41.644) J=AC(48.753)
N4340 G1 X-21.88 Y44.639
N4350 G3 X-20.065 Y44.716 I=AC(-21.072) J=AC(47.005)
N4360 G2 X22.838 Y43.363 I=AC(-0.002) J=AC(0.009)
N4370 G1 X62.661 Y21.573
N4380 G2 X62.213 Y-21.824 I=AC(50.001) J=AC(0.003)
N4390 G1 X22.808 Y-43.381
N4400 G2 X-22.838 Y-43.363 I=AC(0.002) J=AC(-0.007)
N4410 G1 X-62.099 Y-21.894
N4420 G2 X-71.429 Y-12.897 I=AC(-49.961) J=AC(0.028)
N4430 X-62.213 Y21.824 I=AC(-50.005) J=AC(0)
N4440 G1 X-22.808 Y43.382
N4450 G2 X-20.065 Y44.716 I=AC(-0.082) J=AC(0.161)
N4460 G3 X-17.05 Y48.68 I=AC(-22.132) J=AC(49.417)
N4470 X-19.287 Y51.527 Z-0.3 I=AC(-19.524) J=AC(49.039) TURN=0
N4480 G1 X-116.997 Y60.871 F13770
N4490 X-117.018 Y60.873 F4590
N4500 Z-0.4
N4510 Z-1
N4520 X-114.376 Y63.553
N4530 G2 X-101.363 Y74.465 I=AC(-49.873) J=AC(-0.156)
N4540 G3 X-104.905 Y77.845 I=AC(-102.784) J=AC(76.521)
N4550 G1 X-113.128 Y64.676
N4560 G3 X-114.588 Y60.844 I=AC(-103.449) J=AC(58.795)
N4570 G1 X-119.384 Y37.987
N4580 G3 X-114.767 Y36.233 I=AC(-116.937) J=AC(37.474)
N4590 G1 X-114.47 Y36.752
N4600 G2 X-86.09 Y64.837 I=AC(-50.127) J=AC(0.115)
N4610 G1 X-68.498 Y74.466
N4620 G3 X-66.21 Y77.015 I=AC(-70.974) J=AC(78.989)
N4630 X-69.968 Y80.01 Z-0.9 I=AC(-68.52) J=AC(77.972) TURN=0
N4640 G1 X-94.926 Y62.268 F13770
N4650 G3 X-115.296 Y40.369 I=AC(-50.573) J=AC(0.591)
N4660 X-117.02 Y33.983 I=AC(-103.448) J=AC(33.745)
N4670 G1 X-117.012 Y-62.416
N4680 G3 X-110.451 Y-74.424 I=AC(-102.057) J=AC(-62.042)
N4690 G1 X-100.481 Y-81.155
N4700 G3 X-97.658 Y-77.028 Z-1 I=AC(-99.082) J=AC(-79.083) TURN=0 F4590
N4710 G1 X-101.35 Y-74.471
N4720 G2 X-114.379 Y-63.548 I=AC(-50.117) J=AC(-0.13)
N4730 G3 X-117.126 Y-67.611 I=AC(-116.156) J=AC(-65.307)
N4740 G1 X-102.058 Y-73.954
N4750 G3 X-99.42 Y-74.661 I=AC(-97.829) J=AC(-63.449)
N4760 G1 X-69.525 Y-79.439
N4770 G3 X-67.93 Y-74.777 I=AC(-69.13) J=AC(-76.97)
N4780 G1 X-68.491 Y-74.47
N4790 X-86.988 Y-64.333
N4800 G2 X-114.466 Y-36.759 I=AC(-50.057) J=AC(-0.053)
N4810 G3 X-117.002 Y-34.521 I=AC(-118.957) J=AC(-39.293)
N4820 X-119.733 Y-38.587 Z-0.9 I=AC(-117.95) J=AC(-36.835) TURN=0
N4830 G1 X-104.436 Y-54.154 F13770
N4840 G3 X-88.094 Y-66.659 I=AC(-50.343) J=AC(-0.393)
N4850 G1 X-71.863 Y-75.554
N4860 G3 X-66.987 Y-76.967 I=AC(-65.713) J=AC(-63.448)
N4870 G1 X-34.24 Y-80.544
N4880 G3 X-31.692 Y-77.026 Z-1 I=AC(-33.969) J=AC(-78.058) TURN=0 F4590
N4890 X-34.236 Y-74.469 I=AC(-36.389) J=AC(-79.155)
N4900 G2 X-39.575 Y-71.773 I=AC(-0.38) J=AC(-0.784)
N4910 G1 X-79.128 Y-50.108
N4920 G2 X-78.288 Y50.582 I=AC(-50.014) J=AC(-0.002)
N4930 G1 X-38.089 Y72.575
N4940 G2 X-34.239 Y74.467 I=AC(-1.756) J=AC(3.522)
N4950 G3 X-31.696 Y77.024 I=AC(-36.393) J=AC(79.152)
N4960 G2 X-29.398 Y78.493 Z-0.9 I=AC(-29.419) J=AC(75.993) TURN=0
N4970 G1 X96.243 Y77.47 F13770
N4980 G2 X97.641 Y77.028 Z-1 I=AC(96.222) J=AC(74.97) TURN=0 F4590
N4990 G1 X101.352 Y74.471
N5000 G2 X114.377 Y63.549 I=AC(50.133) J=AC(0.161)
N5010 G3 X117.125 Y67.612 I=AC(116.155) J=AC(65.307)
N5020 G1 X102.061 Y73.954
N5030 G3 X99.422 Y74.661 I=AC(97.831) J=AC(63.449)
N5040 G1 X69.524 Y79.439
N5050 G3 X67.929 Y74.777 I=AC(69.129) J=AC(76.97)
N5060 G1 X68.49 Y74.47
N5070 X86.971 Y64.343
N5080 G2 X114.466 Y36.758 I=AC(50.045) J=AC(0.043)
N5090 G1 X117.022 Y32.291
N5100 G2 X117.352 Y31.06 Z-0.9 I=AC(114.852) J=AC(31.049) TURN=0
N5110 G1 X117.748 Y-59.096 F13770
N5120 G2 X117.028 Y-60.862 Z-1 I=AC(115.248) J=AC(-59.107) TURN=0 F4590
N5130 G1 X114.376 Y-63.553
N5140 G2 X101.363 Y-74.465 I=AC(49.873) J=AC(0.156)
N5150 G3 X104.905 Y-77.845 I=AC(102.784) J=AC(-76.521)
N5160 G1 X113.128 Y-64.676
N5170 G3 X114.588 Y-60.844 I=AC(103.449) J=AC(-58.795)
N5180 G1 X119.384 Y-37.987
N5190 G3 X114.767 Y-36.233 I=AC(116.937) J=AC(-37.474)
N5200 G1 X114.47 Y-36.752
N5210 G2 X86.09 Y-64.837 I=AC(50.127) J=AC(-0.115)
N5220 G1 X68.498 Y-74.466
N5230 G3 X66.21 Y-77.015 I=AC(70.974) J=AC(-78.989)
N5240 X69.968 Y-80.01 Z-0.9 I=AC(68.52) J=AC(-77.972) TURN=0
N5250 G1 X94.927 Y-62.268 F13770
N5260 G3 X115.296 Y-40.369 I=AC(50.6) J=AC(-0.616)
N5270 X117.02 Y-33.983 I=AC(103.448) J=AC(-33.745)
N5280 G1 X117.016 Y33.987
N5290 G3 X114.612 Y41.481 I=AC(103.286) J=AC(33.716)
N5300 X88.078 Y66.668 I=AC(50.168) J=AC(0.16)
N5310 G1 X71.862 Y75.555
N5320 G3 X66.987 Y76.967 I=AC(65.713) J=AC(63.448)
N5330 G1 X34.238 Y80.544
N5340 G3 X31.689 Y77.026 Z-1 I=AC(33.967) J=AC(78.058) TURN=0 F4590
N5350 X34.234 Y74.469 I=AC(36.386) J=AC(79.155)
N5360 G2 X39.581 Y71.769 I=AC(0.361) J=AC(0.748)
N5370 G1 X79.137 Y50.102
N5380 G2 X78.288 Y-50.582 I=AC(50.013) J=AC(0.002)
N5390 G1 X38.089 Y-72.575
N5400 G2 X34.239 Y-74.467 I=AC(1.757) J=AC(-3.523)
N5410 X30.695 Y-72.122 I=AC(33.194) J=AC(-72.196)
N5420 G1 X30.993 Y-62.049
N5430 G3 X27.449 Y-59.703 I=AC(28.494) J=AC(-61.975)
N5440 G2 X-31.773 Y-57.519 I=AC(0) J=AC(-0.01)
N5450 G1 X-71.18 Y-35.933
N5460 G2 X-70.486 Y36.328 I=AC(-50.01) J=AC(-0.003)
N5470 G1 X-30.607 Y58.15
N5480 G2 X31.779 Y57.514 I=AC(-0.003) J=AC(0.001)
N5490 G1 X71.209 Y35.917
N5500 G2 X70.486 Y-36.328 I=AC(50.007) J=AC(0.003)
N5510 G1 X43.692 Y-50.994
N5520 G2 X41.709 Y-51.175 I=AC(42.492) J=AC(-48.801)
N5530 G1 X22.488 Y-44.837
N5540 G3 X20.66 Y-44.94 I=AC(21.705) J=AC(-47.211)
N5550 G2 X-23.97 Y-43.264 I=AC(0) J=AC(-0.01)
N5560 G1 X-62.925 Y-21.935
N5570 G2 X-74.398 Y7.266 I=AC(-50.025) J=AC(-0.012)
N5580 G3 X-77.37 Y13.199 I=AC(-79.032) J=AC(8.655)
N5590 X-80.464 Y9.731 Z-0.9 I=AC(-78.229) J=AC(10.851) TURN=0
N5600 G1 X-79.027 Y6.864
N5610 G3 X-74.398 Y7.266 Z-1 I=AC(-76.792) J=AC(7.984) TURN=0
N5620 G2 X-62.683 Y22.074 I=AC(-50.055) J=AC(0.046)
N5630 G1 X-23.125 Y43.724
N5640 G2 X23.977 Y43.26 I=AC(-0.003) J=AC(-0.002)
N5650 G1 X62.945 Y21.923
N5660 G2 X62.683 Y-22.074 I=AC(50.005) J=AC(0.001)
N5670 G1 X23.125 Y-43.725
N5680 G2 X20.66 Y-44.94 I=AC(1.272) J=AC(-2.506)
N5690 G3 X17.716 Y-48.92 I=AC(22.806) J=AC(-49.605)
N5700 X19.951 Y-51.742 Z-0.9 I=AC(20.194) J=AC(-49.254) TURN=0
N5710 G1 X116.993 Y-61.199 F13770
N5720 X117.014 Y-61.201 F4590
N5730 Z-1
N5740 Z-1.6
N5750 X114.328 Y-63.889
N5760 G2 X101.719 Y-74.465 I=AC(50.099) J=AC(-0.122)
N5770 G3 X105.286 Y-77.815 I=AC(103.152) J=AC(-76.514)
N5780 G1 X113.121 Y-64.963
N5790 G3 X114.587 Y-61.124 I=AC(103.449) J=AC(-59.07)
N5800 G1 X119.384 Y-38.404
N5810 G3 X114.777 Y-36.63 I=AC(116.938) J=AC(-37.887)
N5820 G1 X114.47 Y-37.158
N5830 G2 X86.088 Y-65.072 I=AC(50.143) J=AC(-0.14)
N5840 G1 X68.924 Y-74.466
N5850 G3 X66.637 Y-77.015 I=AC(71.4) J=AC(-78.989)
N5860 X70.397 Y-80.008 Z-1.5 I=AC(68.946) J=AC(-77.972) TURN=0
N5870 G1 X95.857 Y-61.842 F13770
N5880 G3 X115.267 Y-40.799 I=AC(50.639) J=AC(-0.662)
N5890 X117.02 Y-34.362 I=AC(103.448) J=AC(-34.122)
N5900 G1 X117.014 Y62.548
N5910 G3 X110.552 Y74.355 I=AC(102.018) J=AC(62.012)
N5920 G1 X100.933 Y81.115
N5930 G3 X98.063 Y77.02 Z-1.6 I=AC(99.496) J=AC(79.069) TURN=0 F4590
N5940 G1 X101.711 Y74.471
N5950 G2 X114.332 Y63.885 I=AC(50.093) J=AC(0.115)
N5960 G3 X117.046 Y67.966 I=AC(116.1) J=AC(65.652)
N5970 G1 X101.991 Y74.109
N5980 G3 X99.768 Y74.66 I=AC(98.169) J=AC(63.449)
N5990 G1 X69.965 Y79.431
N6000 G3 X68.37 Y74.77 I=AC(69.57) J=AC(76.963)
N6010 G1 X68.917 Y74.47
N6020 X87.149 Y64.476
N6030 G2 X114.466 Y37.165 I=AC(50.098) J=AC(0.102)
N6040 G1 X117.02 Y32.773
N6050 G3 X121.064 Y35.675 Z-1.5 I=AC(119.181) J=AC(34.03) TURN=0
N6060 G1 X107.614 Y51.069 F13770
N6070 G3 X88.251 Y66.804 I=AC(50.324) J=AC(0.353)
N6080 G1 X72.289 Y75.554
N6090 G3 X67.413 Y76.967 I=AC(66.139) J=AC(63.449)
N6100 G1 X34.75 Y80.532
N6110 G3 X32.2 Y77.018 Z-1.6 I=AC(34.479) J=AC(78.047) TURN=0 F4590
N6120 X34.715 Y74.469 I=AC(36.9) J=AC(79.14)
N6130 G2 X39.413 Y72.093 I=AC(1.702) J=AC(3.365)
N6140 G1 X79.116 Y50.351
N6150 G2 X78.287 Y-50.818 I=AC(50.009) J=AC(0.002)
N6160 G1 X38.603 Y-72.531
N6170 G2 X34.72 Y-74.467 I=AC(1.619) J=AC(-3.209)
N6180 G3 X32.201 Y-77.024 I=AC(36.904) J=AC(-79.138)
N6190 G2 X29.9 Y-78.5 Z-1.5 I=AC(29.92) J=AC(-76) TURN=0
N6200 G1 X-96.615 Y-77.463 F13770
N6210 G2 X-98.013 Y-77.021 Z-1.6 I=AC(-96.594) J=AC(-74.963) TURN=0 F4590
N6220 G1 X-101.712 Y-74.471
N6230 G2 X-114.33 Y-63.889 I=AC(-50.083) J=AC(-0.094)
N6240 G3 X-117.05 Y-67.965 I=AC(-116.104) J=AC(-65.651)
N6250 G1 X-101.992 Y-74.109
N6260 G3 X-99.77 Y-74.66 I=AC(-98.171) J=AC(-63.449)
N6270 G1 X-69.965 Y-79.431
N6280 G3 X-68.37 Y-74.77 I=AC(-69.57) J=AC(-76.963)
N6290 G1 X-68.917 Y-74.47
N6300 X-87.035 Y-64.542
N6310 G2 X-114.466 Y-37.17 I=AC(-50.073) J=AC(-0.069)
N6320 G1 X-117.021 Y-32.77
N6330 G2 X-117.359 Y-31.526 Z-1.5 I=AC(-114.859) J=AC(-31.515) TURN=0
N6340 G1 X-117.761 Y59.419 F13770
N6350 G2 X-117.025 Y61.201 Z-1.6 I=AC(-115.261) J=AC(59.43) TURN=0 F4590
N6360 G1 X-114.328 Y63.888
N6370 G2 X-101.723 Y74.465 I=AC(-50.307) J=AC(0.391)
N6380 G3 X-105.279 Y77.823 I=AC(-103.145) J=AC(76.521)
N6390 G1 X-113.122 Y64.962
N6400 G3 X-114.587 Y61.125 I=AC(-103.449) J=AC(59.071)
N6410 G1 X-119.391 Y38.384
N6420 G3 X-114.777 Y36.623 I=AC(-116.945) J=AC(37.868)
N6430 G1 X-114.47 Y37.158
N6440 G2 X-86.088 Y65.072 I=AC(-50.14) J=AC(0.136)
N6450 G1 X-68.924 Y74.466
N6460 G3 X-66.637 Y77.015 I=AC(-71.4) J=AC(78.989)
N6470 X-70.397 Y80.008 Z-1.5 I=AC(-68.946) J=AC(77.972) TURN=0
N6480 G1 X-95.857 Y61.842 F13770
N6490 G3 X-115.266 Y40.799 I=AC(-50.636) J=AC(0.658)
N6500 X-117.02 Y34.363 I=AC(-103.448) J=AC(34.123)
N6510 G1 X-117.016 Y-34.373
N6520 G3 X-114.575 Y-41.918 I=AC(-103.272) J=AC(-34.094)
N6530 X-88.144 Y-66.866 I=AC(-50.192) J=AC(-0.184)
N6540 G1 X-72.288 Y-75.555
N6550 G3 X-67.413 Y-76.967 I=AC(-66.139) J=AC(-63.449)
N6560 G1 X-34.75 Y-80.532
N6570 G3 X-32.2 Y-77.018 Z-1.6 I=AC(-34.479) J=AC(-78.047) TURN=0 F4590
N6580 X-34.715 Y-74.469 I=AC(-36.9) J=AC(-79.14)
N6590 G2 X-39.413 Y-72.093 I=AC(-1.703) J=AC(-3.366)
N6600 G1 X-79.023 Y-50.405
N6610 G2 X-98.572 Y-31.995 I=AC(-50.095) J=AC(-0.102)
N6620 X-78.287 Y50.818 I=AC(-50.023) J=AC(0.004)
N6630 G1 X-38.603 Y72.531
N6640 G2 X-34.72 Y74.467 I=AC(-1.617) J=AC(3.205)
N6650 X-31.161 Y72.145 I=AC(-33.66) J=AC(72.203)
N6660 G1 X-31.394 Y62.07
N6670 G3 X-27.835 Y59.748 I=AC(-28.894) J=AC(62.012)
N6680 G2 X31.607 Y57.841 I=AC(0.001) J=AC(0.017)
N6690 G1 X71.316 Y36.093
N6700 G2 X70.485 Y-36.563 I=AC(50.001) J=AC(0.004)
N6710 G1 X31.036 Y-58.15
N6720 G2 X-31.607 Y-57.841 I=AC(0.001) J=AC(-0.008)
N6730 G1 X-71.212 Y-36.153
N6740 G2 X-70.485 Y36.563 I=AC(-50.006) J=AC(-0.003)
N6750 G1 X-44.08 Y51.014
N6760 G2 X-42.107 Y51.199 I=AC(-42.88) J=AC(48.821)
N6770 G1 X-22.783 Y44.915
N6780 G3 X-20.951 Y45.028 I=AC(-22.01) J=AC(47.292)
N6790 G2 X23.81 Y43.584 I=AC(0.001) J=AC(0.018)
N6800 G1 X63.051 Y22.099
N6810 G2 X62.683 Y-22.308 I=AC(50.003) J=AC(0.002)
N6820 G1 X22.783 Y-44.131
N6830 G2 X-23.81 Y-43.584 I=AC(0.001) J=AC(-0.007)
N6840 G1 X-62.998 Y-22.13
N6850 G2 X-62.683 Y22.308 I=AC(-50.007) J=AC(-0.002)
N6860 G1 X-22.783 Y44.131
N6870 G2 X-20.951 Y45.028 I=AC(-1.878) J=AC(3.756)
N6880 G3 X-18.034 Y49.019 I=AC(-23.126) J=AC(49.68)
N6890 X-20.271 Y51.829 Z-1.5 I=AC(-20.513) J=AC(49.341) TURN=0
N6900 G1 X-116.992 Y61.24 F13770
N6910 X-117.013 Y61.242 F4590
N6920 Z-1.6
N6930 Z-2.2
N6940 X-114.32 Y63.946
N6950 G2 X-101.786 Y74.465 I=AC(-50.496) J=AC(0.628)
N6960 G3 X-105.344 Y77.819 I=AC(-103.207) J=AC(76.522)
N6970 G1 X-113.121 Y65.013
N6980 G3 X-114.465 Y61.751 I=AC(-103.449) J=AC(59.12)
N6990 G1 X-119.395 Y38.45
N7000 G3 X-114.777 Y36.695 I=AC(-116.949) J=AC(37.932)
N7010 G1 X-114.47 Y37.234
N7020 G2 X-86.163 Y65.072 I=AC(-50.123) J=AC(0.115)
N7030 G1 X-69 Y74.466
N7040 G3 X-66.712 Y77.015 I=AC(-71.475) J=AC(78.989)
N7050 X-70.473 Y80.007 Z-2.1 I=AC(-69.021) J=AC(77.972) TURN=0
N7060 G1 X-95.906 Y61.85 F13770
N7070 G3 X-115.26 Y40.88 I=AC(-50.656) J=AC(0.672)
N7080 X-117.02 Y34.191 I=AC(-103.494) J=AC(34.209)
N7090 G1 X-117.012 Y-62.416
N7100 G3 X-110.451 Y-74.424 I=AC(-102.056) J=AC(-62.041)
N7110 G1 X-101.018 Y-81.106
N7120 G3 X-98.139 Y-77.017 Z-2.2 I=AC(-99.573) J=AC(-79.066) TURN=0 F4590
N7130 G1 X-101.777 Y-74.471
N7140 G2 X-114.321 Y-63.95 I=AC(-50.163) J=AC(-0.195)
N7150 G3 X-117.041 Y-68.023 I=AC(-116.099) J=AC(-65.707)
N7160 G1 X-102.057 Y-74.108
N7170 G3 X-99.833 Y-74.66 I=AC(-98.232) J=AC(-63.449)
N7180 G1 X-70.053 Y-79.428
N7190 G3 X-68.458 Y-74.766 I=AC(-69.658) J=AC(-76.959)
N7200 G1 X-68.999 Y-74.47
N7210 X-87.024 Y-64.596
N7220 G2 X-95.202 Y-59.158 I=AC(-50.583) J=AC(-0.941)
N7230 G3 X-100.588 Y-58.436 I=AC(-98.524) J=AC(-63.495)
N7240 X-99.975 Y-63.229 Z-2.1 I=AC(-99.643) J=AC(-60.751) TURN=0
N7250 G1 X-97.054 Y-63.62
N7260 G3 X-95.202 Y-59.158 Z-2.2 I=AC(-96.722) J=AC(-61.142) TURN=0
N7270 G2 X-114.466 Y-37.246 I=AC(-50.15) J=AC(-0.124)
N7280 G1 X-117.02 Y-32.808
N7290 G3 X-121.071 Y-35.698 Z-2.1 I=AC(-119.187) J=AC(-34.055) TURN=0
N7300 G1 X-107.565 Y-51.179 F13770
N7310 G3 X-88.258 Y-66.852 I=AC(-50.093) J=AC(-0.108)
N7320 G1 X-72.37 Y-75.556
N7330 G3 X-67.496 Y-76.967 I=AC(-66.223) J=AC(-63.449)
N7340 G1 X-34.836 Y-80.531
N7350 G3 X-32.287 Y-77.016 Z-2.2 I=AC(-34.565) J=AC(-78.046) TURN=0 F4590
N7360 X-34.802 Y-74.469 I=AC(-36.985) J=AC(-79.141)
N7370 G2 X-39.41 Y-72.137 I=AC(-1.837) J=AC(-3.63)
N7380 G1 X-78.887 Y-50.531
N7390 G2 X-78.361 Y50.818 I=AC(-50.005) J=AC(-0.005)
N7400 G1 X-38.592 Y72.579
N7410 G2 X-34.806 Y74.467 I=AC(-1.812) J=AC(3.592)
N7420 G3 X-32.286 Y77.025 I=AC(-36.989) J=AC(79.139)
N7430 G2 X-29.986 Y78.499 Z-2.1 I=AC(-30.006) J=AC(76) TURN=0
N7440 G1 X96.726 Y77.47 F13770
N7450 G2 X98.14 Y77.017 Z-2.2 I=AC(96.706) J=AC(74.97) TURN=0 F4590
N7460 G1 X101.775 Y74.471
N7470 G2 X114.324 Y63.946 I=AC(50.132) J=AC(0.158)
N7480 G3 X117.033 Y68.029 I=AC(116.091) J=AC(65.713)
N7490 G1 X102.054 Y74.108
N7500 G3 X99.831 Y74.66 I=AC(98.23) J=AC(63.449)
N7510 G1 X70.049 Y79.428
N7520 G3 X68.453 Y74.766 I=AC(69.653) J=AC(76.959)
N7530 G1 X68.994 Y74.47
N7540 X87.116 Y64.538
N7550 G2 X114.466 Y37.238 I=AC(50.096) J=AC(0.1)
N7560 G1 X117.018 Y32.863
N7570 G2 X117.359 Y31.614 Z-2.1 I=AC(114.859) J=AC(31.603) TURN=0
N7580 G1 X117.758 Y-59.471 F13770
N7590 G2 X117.023 Y-61.252 Z-2.2 I=AC(115.258) J=AC(-59.481) TURN=0 F4590
N7600 G1 X114.319 Y-63.948
N7610 G2 X101.785 Y-74.465 I=AC(50.164) J=AC(-0.212)
N7620 G3 X105.354 Y-77.811 I=AC(103.217) J=AC(-76.514)
N7630 G1 X113.12 Y-65.014
N7640 G3 X114.587 Y-61.174 I=AC(103.449) J=AC(-59.119)
N7650 G1 X119.386 Y-38.469
N7660 G3 X114.777 Y-36.699 I=AC(116.94) J=AC(-37.952)
N7670 G1 X114.47 Y-37.23
N7680 G2 X86.163 Y-65.072 I=AC(50.163) J=AC(-0.161)
N7690 G1 X69 Y-74.466
N7700 G3 X66.712 Y-77.015 I=AC(71.475) J=AC(-78.989)
N7710 X70.473 Y-80.007 Z-2.1 I=AC(69.021) J=AC(-77.972) TURN=0
N7720 G1 X95.907 Y-61.851 F13770
N7730 G3 X115.262 Y-40.874 I=AC(50.663) J=AC(-0.687)
N7740 X117.02 Y-34.189 I=AC(103.494) J=AC(-34.206)
N7750 G1 X117.016 Y34.437
N7760 G3 X114.571 Y41.987 I=AC(103.293) J=AC(34.165)
N7770 X88.347 Y66.795 I=AC(50.165) J=AC(0.169)
N7780 G1 X72.366 Y75.554
N7790 G3 X67.49 Y76.967 I=AC(66.216) J=AC(63.449)
N7800 G1 X34.836 Y80.531
N7810 G3 X32.287 Y77.016 Z-2.2 I=AC(34.565) J=AC(78.046) TURN=0 F4590
N7820 X34.802 Y74.469 I=AC(36.985) J=AC(79.141)
N7830 G2 X39.413 Y72.135 I=AC(1.835) J=AC(3.625)
N7840 G1 X79.095 Y50.406
N7850 G2 X78.361 Y-50.818 I=AC(50.009) J=AC(0.002)
N7860 G1 X38.592 Y-72.579
N7870 G2 X34.806 Y-74.467 I=AC(1.812) J=AC(-3.592)
N7880 X31.249 Y-72.144 I=AC(33.748) J=AC(-72.202)
N7890 G1 X31.485 Y-62.069
N7900 G3 X27.927 Y-59.745 I=AC(28.985) J=AC(-62.01)
N7910 G2 X-31.61 Y-57.881 I=AC(-0.001) J=AC(-0.02)
N7920 G1 X-71.226 Y-36.189
N7930 G2 X-70.559 Y36.563 I=AC(-50.004) J=AC(-0.005)
N7940 G1 X-31.031 Y58.195
N7950 G2 X31.605 Y57.884 I=AC(-0.001) J=AC(0.011)
N7960 G1 X71.305 Y36.142
N7970 G2 X70.559 Y-36.563 I=AC(50.001) J=AC(0.004)
N7980 G1 X44.168 Y-51.008
N7990 G2 X42.194 Y-51.192 I=AC(42.968) J=AC(-48.815)
N8000 G1 X22.879 Y-44.911
N8010 G3 X21.047 Y-45.023 I=AC(22.106) J=AC(-47.288)
N8020 G2 X-23.81 Y-43.625 I=AC(-0.001) J=AC(-0.021)
N8030 G1 X-63.088 Y-22.124
N8040 G2 X-62.757 Y22.309 I=AC(-50) J=AC(-0.004)
N8050 G1 X-22.783 Y44.172
N8060 G2 X23.81 Y43.625 I=AC(-0.001) J=AC(0.01)
N8070 G1 X63.051 Y22.142
N8080 G2 X62.757 Y-22.309 I=AC(50.002) J=AC(0.002)
N8090 G1 X22.783 Y-44.172
N8100 G2 X21.047 Y-45.023 I=AC(2.411) J=AC(-4.828)
N8110 G3 X18.128 Y-49.024 I=AC(23.221) J=AC(-49.676)
N8120 X20.365 Y-51.83 Z-2.1 I=AC(20.607) J=AC(-49.341) TURN=0
N8130 G1 X116.992 Y-61.26 F13770
N8140 X117.013 Y-61.262 F4590
N8150 Z-2.2
N8160 Z-2.8
N8170 X114.319 Y-63.948
N8180 G2 X101.785 Y-74.465 I=AC(50.164) J=AC(-0.212)
N8190 G3 X105.354 Y-77.811 I=AC(103.217) J=AC(-76.514)
N8200 G1 X113.12 Y-65.014
N8210 G3 X114.587 Y-61.174 I=AC(103.449) J=AC(-59.119)
N8220 G1 X119.386 Y-38.469
N8230 G3 X114.777 Y-36.699 I=AC(116.94) J=AC(-37.952)
N8240 G1 X114.47 Y-37.23
N8250 G2 X86.163 Y-65.072 I=AC(50.163) J=AC(-0.161)
N8260 G1 X69 Y-74.466
N8270 G3 X66.712 Y-77.015 I=AC(71.475) J=AC(-78.989)
N8280 X70.473 Y-80.007 Z-2.7 I=AC(69.021) J=AC(-77.972) TURN=0
N8290 G1 X95.907 Y-61.851 F13770
N8300 G3 X115.262 Y-40.874 I=AC(50.663) J=AC(-0.687)
N8310 X117.02 Y-34.189 I=AC(103.494) J=AC(-34.206)
N8320 G1 X117.014 Y62.548
N8330 G3 X110.552 Y74.355 I=AC(102.018) J=AC(62.012)
N8340 G1 X101.019 Y81.105
N8350 G3 X98.14 Y77.017 Z-2.8 I=AC(99.575) J=AC(79.065) TURN=0 F4590
N8360 G1 X101.775 Y74.471
N8370 G2 X114.324 Y63.946 I=AC(50.132) J=AC(0.158)
N8380 G3 X117.033 Y68.029 I=AC(116.091) J=AC(65.713)
N8390 G1 X102.054 Y74.108
N8400 G3 X99.831 Y74.66 I=AC(98.23) J=AC(63.449)
N8410 G1 X70.049 Y79.428
N8420 G3 X68.453 Y74.766 I=AC(69.653) J=AC(76.959)
N8430 G1 X68.994 Y74.47
N8440 X87.116 Y64.538
N8450 G2 X114.466 Y37.238 I=AC(50.096) J=AC(0.1)
N8460 G1 X117.018 Y32.863
N8470 G3 X121.059 Y35.769 Z-2.7 I=AC(119.178) J=AC(34.122) TURN=0
N8480 G1 X107.596 Y51.145 F13770
N8490 G3 X88.347 Y66.795 I=AC(50.201) J=AC(0.218)
N8500 G1 X72.366 Y75.554
N8510 G3 X67.49 Y76.967 I=AC(66.216) J=AC(63.449)
N8520 G1 X34.836 Y80.531
N8530 G3 X32.287 Y77.016 Z-2.8 I=AC(34.565) J=AC(78.046) TURN=0 F4590
N8540 X34.802 Y74.469 I=AC(36.985) J=AC(79.141)
N8550 G2 X39.413 Y72.135 I=AC(1.835) J=AC(3.625)
N8560 G1 X79.095 Y50.406
N8570 G2 X78.361 Y-50.818 I=AC(50.009) J=AC(0.002)
N8580 G1 X38.592 Y-72.579
N8590 G2 X34.806 Y-74.467 I=AC(1.812) J=AC(-3.592)
N8600 G3 X32.286 Y-77.025 I=AC(36.989) J=AC(-79.139)
N8610 G2 X29.986 Y-78.499 Z-2.7 I=AC(30.006) J=AC(-76) TURN=0
N8620 G1 X-96.726 Y-77.469 F13770
N8630 G2 X-98.139 Y-77.017 Z-2.8 I=AC(-96.706) J=AC(-74.969) TURN=0 F4590
N8640 G1 X-101.777 Y-74.471
N8650 G2 X-114.321 Y-63.95 I=AC(-50.163) J=AC(-0.195)
N8660 G3 X-117.041 Y-68.023 I=AC(-116.099) J=AC(-65.707)
N8670 G1 X-102.057 Y-74.108
N8680 G3 X-99.833 Y-74.66 I=AC(-98.232) J=AC(-63.449)
N8690 G1 X-70.053 Y-79.428
N8700 G3 X-68.458 Y-74.766 I=AC(-69.658) J=AC(-76.959)
N8710 G1 X-68.999 Y-74.47
N8720 X-87.024 Y-64.596
N8730 G2 X-95.202 Y-59.158 I=AC(-50.583) J=AC(-0.941)
N8740 G3 X-100.588 Y-58.436 I=AC(-98.524) J=AC(-63.495)
N8750 X-99.975 Y-63.229 Z-2.7 I=AC(-99.643) J=AC(-60.751) TURN=0
N8760 G1 X-97.054 Y-63.62
N8770 G3 X-95.202 Y-59.158 Z-2.8 I=AC(-96.722) J=AC(-61.142) TURN=0
N8780 G2 X-114.466 Y-37.246 I=AC(-50.15) J=AC(-0.124)
N8790 G1 X-117.02 Y-32.808
N8800 G2 X-117.353 Y-31.572 Z-2.7 I=AC(-114.853) J=AC(-31.561) TURN=0
N8810 G1 X-117.753 Y59.456 F13770
N8820 G2 X-117.024 Y61.231 Z-2.8 I=AC(-115.253) J=AC(59.467) TURN=0 F4590
N8830 G1 X-114.32 Y63.946
N8840 G2 X-101.786 Y74.465 I=AC(-50.496) J=AC(0.628)
N8850 G3 X-105.344 Y77.819 I=AC(-103.207) J=AC(76.522)
N8860 G1 X-113.121 Y65.013
N8870 G3 X-114.465 Y61.751 I=AC(-103.449) J=AC(59.12)
N8880 G1 X-119.395 Y38.45
N8890 G3 X-114.777 Y36.695 I=AC(-116.949) J=AC(37.932)
N8900 G1 X-114.47 Y37.234
N8910 G2 X-86.163 Y65.072 I=AC(-50.123) J=AC(0.115)
N8920 G1 X-69 Y74.466
N8930 G3 X-66.712 Y77.015 I=AC(-71.475) J=AC(78.989)
N8940 X-70.473 Y80.007 Z-2.7 I=AC(-69.021) J=AC(77.972) TURN=0
N8950 G1 X-95.906 Y61.85 F13770
N8960 G3 X-115.26 Y40.88 I=AC(-50.625) J=AC(0.643)
N8970 X-117.02 Y34.191 I=AC(-103.494) J=AC(34.209)
N8980 G1 X-117.016 Y-34.444
N8990 G3 X-114.566 Y-42.002 I=AC(-103.273) J=AC(-34.165)
N9000 X-88.258 Y-66.852 I=AC(-50.056) J=AC(-0.059)
N9010 G1 X-72.37 Y-75.556
N9020 G3 X-67.496 Y-76.967 I=AC(-66.223) J=AC(-63.449)
N9030 G1 X-34.836 Y-80.531
N9040 G3 X-32.287 Y-77.016 Z-2.8 I=AC(-34.565) J=AC(-78.046) TURN=0 F4590
N9050 X-34.802 Y-74.469 I=AC(-36.985) J=AC(-79.141)
N9060 G2 X-39.41 Y-72.137 I=AC(-1.837) J=AC(-3.63)
N9070 G1 X-78.887 Y-50.531
N9080 G2 X-78.361 Y50.818 I=AC(-50.005) J=AC(-0.005)
N9090 G1 X-38.592 Y72.579
N9100 G2 X-34.806 Y74.467 I=AC(-1.812) J=AC(3.592)
N9110 X-31.249 Y72.144 I=AC(-33.748) J=AC(72.202)
N9120 G1 X-31.485 Y62.069
N9130 G3 X-27.927 Y59.745 I=AC(-28.985) J=AC(62.01)
N9140 G2 X31.605 Y57.884 I=AC(0.001) J=AC(0.02)
N9150 G1 X71.305 Y36.142
N9160 G2 X70.559 Y-36.563 I=AC(50.001) J=AC(0.004)
N9170 G1 X31.031 Y-58.195
N9180 G2 X-31.61 Y-57.881 I=AC(0.001) J=AC(-0.011)
N9190 G1 X-71.226 Y-36.189
N9200 G2 X-70.559 Y36.563 I=AC(-50.004) J=AC(-0.005)
N9210 G1 X-44.168 Y51.008
N9220 G2 X-42.194 Y51.192 I=AC(-42.967) J=AC(48.815)
N9230 G1 X-22.879 Y44.911
N9240 G3 X-21.047 Y45.023 I=AC(-22.106) J=AC(47.288)
N9250 G2 X23.81 Y43.625 I=AC(0.001) J=AC(0.021)
N9260 G1 X63.051 Y22.142
N9270 G2 X62.757 Y-22.309 I=AC(50.002) J=AC(0.002)
N9280 G1 X22.783 Y-44.172
N9290 G2 X-23.81 Y-43.625 I=AC(0.001) J=AC(-0.01)
N9300 G1 X-63.088 Y-22.124
N9310 G2 X-62.757 Y22.309 I=AC(-50) J=AC(-0.004)
N9320 G1 X-22.783 Y44.172
N9330 G2 X-21.047 Y45.023 I=AC(-2.412) J=AC(4.829)
N9340 G3 X-18.127 Y49.025 I=AC(-23.221) J=AC(49.676)
N9350 X-20.365 Y51.83 Z-2.7 I=AC(-20.607) J=AC(49.342) TURN=0
N9360 G1 X-116.992 Y61.24 F13770
N9370 X-117.013 Y61.242 F4590
N9380 Z-2.8
N9390 Z-3.4
N9400 X-114.32 Y63.946
N9410 G2 X-101.786 Y74.465 I=AC(-50.496) J=AC(0.628)
N9420 G3 X-105.344 Y77.819 I=AC(-103.207) J=AC(76.522)
N9430 G1 X-113.121 Y65.013
N9440 G3 X-114.465 Y61.751 I=AC(-103.449) J=AC(59.12)
N9450 G1 X-119.395 Y38.45
N9460 G3 X-114.777 Y36.695 I=AC(-116.949) J=AC(37.932)
N9470 G1 X-114.47 Y37.234
N9480 G2 X-86.163 Y65.072 I=AC(-50.123) J=AC(0.115)
N9490 G1 X-69 Y74.466
N9500 G3 X-66.712 Y77.015 I=AC(-71.475) J=AC(78.989)
N9510 X-70.473 Y80.007 Z-3.3 I=AC(-69.021) J=AC(77.972) TURN=0
N9520 G1 X-95.906 Y61.85 F13770
N9530 G3 X-115.26 Y40.88 I=AC(-50.656) J=AC(0.672)
N9540 X-117.02 Y34.191 I=AC(-103.494) J=AC(34.209)
N9550 G1 X-117.012 Y-62.416
N9560 G3 X-110.451 Y-74.424 I=AC(-102.057) J=AC(-62.042)
N9570 G1 X-101.018 Y-81.106
N9580 G3 X-98.139 Y-77.017 Z-3.4 I=AC(-99.573) J=AC(-79.066) TURN=0 F4590
N9590 G1 X-101.777 Y-74.471
N9600 G2 X-114.321 Y-63.95 I=AC(-50.163) J=AC(-0.195)
N9610 G3 X-117.041 Y-68.023 I=AC(-116.099) J=AC(-65.707)
N9620 G1 X-102.057 Y-74.108
N9630 G3 X-99.833 Y-74.66 I=AC(-98.232) J=AC(-63.449)
N9640 G1 X-70.053 Y-79.428
N9650 G3 X-68.458 Y-74.766 I=AC(-69.658) J=AC(-76.959)
N9660 G1 X-68.999 Y-74.47
N9670 X-87.024 Y-64.596
N9680 G2 X-95.202 Y-59.158 I=AC(-50.583) J=AC(-0.941)
N9690 G3 X-100.588 Y-58.436 I=AC(-98.524) J=AC(-63.495)
N9700 X-99.975 Y-63.229 Z-3.3 I=AC(-99.643) J=AC(-60.751) TURN=0
N9710 G1 X-97.054 Y-63.62
N9720 G3 X-95.202 Y-59.158 Z-3.4 I=AC(-96.722) J=AC(-61.142) TURN=0
N9730 G2 X-114.466 Y-37.246 I=AC(-50.15) J=AC(-0.124)
N9740 G1 X-117.02 Y-32.808
N9750 G3 X-121.071 Y-35.698 Z-3.3 I=AC(-119.187) J=AC(-34.055) TURN=0
N9760 G1 X-107.565 Y-51.179 F13770
N9770 G3 X-88.258 Y-66.852 I=AC(-50.093) J=AC(-0.108)
N9780 G1 X-72.37 Y-75.556
N9790 G3 X-67.496 Y-76.967 I=AC(-66.223) J=AC(-63.449)
N9800 G1 X-34.836 Y-80.531
N9810 G3 X-32.287 Y-77.016 Z-3.4 I=AC(-34.565) J=AC(-78.046) TURN=0 F4590
N9820 X-34.802 Y-74.469 I=AC(-36.985) J=AC(-79.141)
N9830 G2 X-39.41 Y-72.137 I=AC(-1.837) J=AC(-3.63)
N9840 G1 X-78.887 Y-50.531
N9850 G2 X-78.361 Y50.818 I=AC(-50.005) J=AC(-0.005)
N9860 G1 X-38.592 Y72.579
N9870 G2 X-34.806 Y74.467 I=AC(-1.812) J=AC(3.592)
N9880 G3 X-32.286 Y77.025 I=AC(-36.989) J=AC(79.139)
N9890 G2 X-29.986 Y78.499 Z-3.3 I=AC(-30.006) J=AC(76) TURN=0
N9900 G1 X96.726 Y77.47 F13770
N9910 G2 X98.14 Y77.017 Z-3.4 I=AC(96.706) J=AC(74.97) TURN=0 F4590
N9920 G1 X101.775 Y74.471
N9930 G2 X114.324 Y63.946 I=AC(50.132) J=AC(0.158)
N9940 G3 X117.033 Y68.029 I=AC(116.091) J=AC(65.713)
N9950 G1 X102.054 Y74.108
N9960 G3 X99.831 Y74.66 I=AC(98.23) J=AC(63.449)
N9970 G1 X70.049 Y79.428
N9980 G3 X68.453 Y74.766 I=AC(69.653) J=AC(76.959)
N9990 G1 X68.994 Y74.47
N10 X87.116 Y64.538
N20 G2 X114.466 Y37.238 I=AC(50.096) J=AC(0.1)
N30 G1 X117.018 Y32.863
N40 G2 X117.359 Y31.614 Z-3.3 I=AC(114.859) J=AC(31.603) TURN=0
N50 G1 X117.758 Y-59.471 F13770
N60 G2 X117.023 Y-61.252 Z-3.4 I=AC(115.258) J=AC(-59.481) TURN=0 F4590
N70 G1 X114.319 Y-63.948
N80 G2 X101.785 Y-74.465 I=AC(50.164) J=AC(-0.212)
N90 G3 X105.354 Y-77.811 I=AC(103.217) J=AC(-76.514)
N100 G1 X113.12 Y-65.014
N110 G3 X114.587 Y-61.174 I=AC(103.449) J=AC(-59.119)
N120 G1 X119.386 Y-38.469
N130 G3 X114.777 Y-36.699 I=AC(116.94) J=AC(-37.952)
N140 G1 X114.47 Y-37.23
N150 G2 X86.163 Y-65.072 I=AC(50.163) J=AC(-0.161)
N160 G1 X69 Y-74.466
N170 G3 X66.712 Y-77.015 I=AC(71.475) J=AC(-78.989)
N180 X70.473 Y-80.007 Z-3.3 I=AC(69.021) J=AC(-77.972) TURN=0
N190 G1 X95.907 Y-61.851 F13770
N200 G3 X115.262 Y-40.874 I=AC(50.663) J=AC(-0.687)
N210 X117.02 Y-34.189 I=AC(103.494) J=AC(-34.206)
N220 G1 X117.016 Y34.437
N230 G3 X114.571 Y41.987 I=AC(103.274) J=AC(34.158)
N240 X88.347 Y66.795 I=AC(50.164) J=AC(0.169)
N250 G1 X72.366 Y75.554
N260 G3 X67.49 Y76.967 I=AC(66.216) J=AC(63.449)
N270 G1 X34.836 Y80.531
N280 G3 X32.287 Y77.016 Z-3.4 I=AC(34.565) J=AC(78.046) TURN=0 F4590
N290 X34.802 Y74.469 I=AC(36.985) J=AC(79.141)
N300 G2 X39.413 Y72.135 I=AC(1.835) J=AC(3.625)
N310 G1 X79.095 Y50.406
N320 G2 X78.361 Y-50.818 I=AC(50.009) J=AC(0.002)
N330 G1 X38.592 Y-72.579
N340 G2 X34.806 Y-74.467 I=AC(1.812) J=AC(-3.592)
N350 X31.249 Y-72.144 I=AC(33.748) J=AC(-72.202)
N360 G1 X31.485 Y-62.069
N370 G3 X27.927 Y-59.745 I=AC(28.985) J=AC(-62.01)
N380 G2 X-31.61 Y-57.881 I=AC(-0.001) J=AC(-0.02)
N390 G1 X-71.226 Y-36.189
N400 G2 X-70.559 Y36.563 I=AC(-50.004) J=AC(-0.005)
N410 G1 X-31.031 Y58.195
N420 G2 X31.605 Y57.884 I=AC(-0.001) J=AC(0.011)
N430 G1 X71.305 Y36.142
N440 G2 X70.559 Y-36.563 I=AC(50.001) J=AC(0.004)
N450 G1 X44.168 Y-51.008
N460 G2 X42.194 Y-51.192 I=AC(42.968) J=AC(-48.815)
N470 G1 X22.879 Y-44.911
N480 G3 X21.047 Y-45.023 I=AC(22.106) J=AC(-47.288)
N490 G2 X-23.81 Y-43.625 I=AC(-0.001) J=AC(-0.021)
N500 G1 X-63.088 Y-22.124
N510 G2 X-62.757 Y22.309 I=AC(-50) J=AC(-0.004)
N520 G1 X-22.783 Y44.172
N530 G2 X23.81 Y43.625 I=AC(-0.001) J=AC(0.01)
N540 G1 X63.051 Y22.142
N550 G2 X62.757 Y-22.309 I=AC(50.002) J=AC(0.002)
N560 G1 X22.783 Y-44.172
N570 G2 X21.047 Y-45.023 I=AC(2.411) J=AC(-4.828)
N580 G3 X18.128 Y-49.024 I=AC(23.221) J=AC(-49.676)
N590 X20.365 Y-51.83 Z-3.3 I=AC(20.607) J=AC(-49.341) TURN=0
N600 G1 X116.992 Y-61.26 F13770
N610 X117.013 Y-61.262 F4590
N620 Z-3.4
N630 Z-4
N640 X114.319 Y-63.948
N650 G2 X101.785 Y-74.465 I=AC(50.164) J=AC(-0.212)
N660 G3 X105.354 Y-77.811 I=AC(103.217) J=AC(-76.514)
N670 G1 X113.12 Y-65.014
N680 G3 X114.587 Y-61.174 I=AC(103.449) J=AC(-59.119)
N690 G1 X119.386 Y-38.469
N700 G3 X114.777 Y-36.699 I=AC(116.94) J=AC(-37.952)
N710 G1 X114.47 Y-37.23
N720 G2 X86.163 Y-65.072 I=AC(50.163) J=AC(-0.161)
N730 G1 X69 Y-74.466
N740 G3 X66.712 Y-77.015 I=AC(71.475) J=AC(-78.989)
N750 X70.473 Y-80.007 Z-3.9 I=AC(69.021) J=AC(-77.972) TURN=0
N760 G1 X95.907 Y-61.851 F13770
N770 G3 X115.262 Y-40.874 I=AC(50.663) J=AC(-0.687)
N780 X117.02 Y-34.189 I=AC(103.494) J=AC(-34.206)
N790 G1 X117.014 Y62.548
N800 G3 X110.552 Y74.355 I=AC(102.018) J=AC(62.012)
N810 G1 X101.019 Y81.105
N820 G3 X98.14 Y77.017 Z-4 I=AC(99.575) J=AC(79.065) TURN=0 F4590
N830 G1 X101.775 Y74.471
N840 G2 X114.324 Y63.946 I=AC(50.132) J=AC(0.158)
N850 G3 X117.033 Y68.029 I=AC(116.091) J=AC(65.713)
N860 G1 X102.054 Y74.108
N870 G3 X99.831 Y74.66 I=AC(98.23) J=AC(63.449)
N880 G1 X70.049 Y79.428
N890 G3 X68.453 Y74.766 I=AC(69.653) J=AC(76.959)
N900 G1 X68.994 Y74.47
N910 X87.116 Y64.538
N920 G2 X114.466 Y37.238 I=AC(50.096) J=AC(0.1)
N930 G1 X117.018 Y32.863
N940 G3 X121.059 Y35.769 Z-3.9 I=AC(119.178) J=AC(34.122) TURN=0
N950 G1 X107.596 Y51.145 F13770
N960 G3 X88.347 Y66.795 I=AC(50.201) J=AC(0.218)
N970 G1 X72.366 Y75.554
N980 G3 X67.49 Y76.967 I=AC(66.216) J=AC(63.449)
N990 G1 X34.836 Y80.531
N1000 G3 X32.287 Y77.016 Z-4 I=AC(34.565) J=AC(78.046) TURN=0 F4590
N1010 X34.802 Y74.469 I=AC(36.985) J=AC(79.141)
N1020 G2 X39.413 Y72.135 I=AC(1.835) J=AC(3.625)
N1030 G1 X79.095 Y50.406
N1040 G2 X78.361 Y-50.818 I=AC(50.009) J=AC(0.002)
N1050 G1 X38.592 Y-72.579
N1060 G2 X34.806 Y-74.467 I=AC(1.812) J=AC(-3.592)
N1070 G3 X32.286 Y-77.025 I=AC(36.989) J=AC(-79.139)
N1080 G2 X29.986 Y-78.499 Z-3.9 I=AC(30.006) J=AC(-76) TURN=0
N1090 G1 X-96.726 Y-77.469 F13770
N1100 G2 X-98.139 Y-77.017 Z-4 I=AC(-96.706) J=AC(-74.969) TURN=0 F4590
N1110 G1 X-101.777 Y-74.471
N1120 G2 X-114.321 Y-63.95 I=AC(-50.163) J=AC(-0.195)
N1130 G3 X-117.041 Y-68.023 I=AC(-116.099) J=AC(-65.707)
N1140 G1 X-102.057 Y-74.108
N1150 G3 X-99.833 Y-74.66 I=AC(-98.232) J=AC(-63.449)
N1160 G1 X-70.053 Y-79.428
N1170 G3 X-68.458 Y-74.766 I=AC(-69.658) J=AC(-76.959)
N1180 G1 X-68.999 Y-74.47
N1190 X-87.024 Y-64.596
N1200 G2 X-95.202 Y-59.158 I=AC(-50.583) J=AC(-0.941)
N1210 G3 X-100.588 Y-58.436 I=AC(-98.524) J=AC(-63.495)
N1220 X-99.975 Y-63.229 Z-3.9 I=AC(-99.643) J=AC(-60.751) TURN=0
N1230 G1 X-97.054 Y-63.62
N1240 G3 X-95.202 Y-59.158 Z-4 I=AC(-96.722) J=AC(-61.142) TURN=0
N1250 G2 X-114.466 Y-37.246 I=AC(-50.15) J=AC(-0.124)
N1260 G1 X-117.02 Y-32.808
N1270 G2 X-117.353 Y-31.572 Z-3.9 I=AC(-114.853) J=AC(-31.561) TURN=0
N1280 G1 X-117.753 Y59.456 F13770
N1290 G2 X-117.024 Y61.231 Z-4 I=AC(-115.253) J=AC(59.467) TURN=0 F4590
N1300 G1 X-114.32 Y63.946
N1310 G2 X-101.786 Y74.465 I=AC(-50.496) J=AC(0.628)
N1320 G3 X-105.344 Y77.819 I=AC(-103.207) J=AC(76.522)
N1330 G1 X-113.121 Y65.013
N1340 G3 X-114.465 Y61.751 I=AC(-103.449) J=AC(59.12)
N1350 G1 X-119.395 Y38.45
N1360 G3 X-114.777 Y36.695 I=AC(-116.949) J=AC(37.932)
N1370 G1 X-114.47 Y37.234
N1380 G2 X-86.163 Y65.072 I=AC(-50.123) J=AC(0.115)
N1390 G1 X-69 Y74.466
N1400 G3 X-66.712 Y77.015 I=AC(-71.475) J=AC(78.989)
N1410 X-70.473 Y80.007 Z-3.9 I=AC(-69.021) J=AC(77.972) TURN=0
N1420 G1 X-95.906 Y61.85 F13770
N1430 G3 X-115.26 Y40.88 I=AC(-50.656) J=AC(0.672)
N1440 X-117.02 Y34.191 I=AC(-103.494) J=AC(34.209)
N1450 G1 X-117.016 Y-34.444
N1460 G3 X-114.566 Y-42.002 I=AC(-103.273) J=AC(-34.165)
N1470 X-88.258 Y-66.852 I=AC(-50.056) J=AC(-0.059)
N1480 G1 X-72.37 Y-75.556
N1490 G3 X-67.496 Y-76.967 I=AC(-66.223) J=AC(-63.449)
N1500 G1 X-34.836 Y-80.531
N1510 G3 X-32.287 Y-77.016 Z-4 I=AC(-34.565) J=AC(-78.046) TURN=0 F4590
N1520 X-34.802 Y-74.469 I=AC(-36.985) J=AC(-79.141)
N1530 G2 X-39.41 Y-72.137 I=AC(-1.837) J=AC(-3.63)
N1540 G1 X-78.887 Y-50.531
N1550 G2 X-78.361 Y50.818 I=AC(-50.005) J=AC(-0.005)
N1560 G1 X-38.592 Y72.579
N1570 G2 X-34.806 Y74.467 I=AC(-1.812) J=AC(3.592)
N1580 X-31.249 Y72.144 I=AC(-33.748) J=AC(72.202)
N1590 G1 X-31.485 Y62.069
N1600 G3 X-27.927 Y59.745 I=AC(-28.985) J=AC(62.01)
N1610 G2 X31.605 Y57.884 I=AC(0.001) J=AC(0.02)
N1620 G1 X71.305 Y36.142
N1630 G2 X70.559 Y-36.563 I=AC(50.001) J=AC(0.004)
N1640 G1 X31.031 Y-58.195
N1650 G2 X-31.61 Y-57.881 I=AC(0.001) J=AC(-0.011)
N1660 G1 X-71.226 Y-36.189
N1670 G2 X-70.559 Y36.563 I=AC(-50.004) J=AC(-0.005)
N1680 G1 X-44.168 Y51.008
N1690 G2 X-42.194 Y51.192 I=AC(-42.967) J=AC(48.815)
N1700 G1 X-22.879 Y44.911
N1710 G3 X-21.047 Y45.023 I=AC(-22.106) J=AC(47.288)
N1720 G2 X23.81 Y43.625 I=AC(0.001) J=AC(0.021)
N1730 G1 X63.051 Y22.142
N1740 G2 X62.757 Y-22.309 I=AC(50.002) J=AC(0.002)
N1750 G1 X22.783 Y-44.172
N1760 G2 X-23.81 Y-43.625 I=AC(0.001) J=AC(-0.01)
N1770 G1 X-63.088 Y-22.124
N1780 G2 X-62.757 Y22.309 I=AC(-50) J=AC(-0.004)
N1790 G1 X-22.783 Y44.172
N1800 G2 X-21.047 Y45.023 I=AC(-2.412) J=AC(4.829)
N1810 G3 X-18.127 Y49.025 I=AC(-23.221) J=AC(49.676)
N1820 X-20.365 Y51.83 Z-3.9 I=AC(-20.607) J=AC(49.342) TURN=0
N1830 G1 X-116.992 Y61.24 F13770
N1840 X-117.013 Y61.242 F4590
N1850 Z-4
N1860 Z-4.6
N1870 X-114.32 Y63.946
N1880 G2 X-101.786 Y74.465 I=AC(-50.496) J=AC(0.628)
N1890 G3 X-105.344 Y77.819 I=AC(-103.207) J=AC(76.522)
N1900 G1 X-113.121 Y65.013
N1910 G3 X-114.465 Y61.751 I=AC(-103.449) J=AC(59.12)
N1920 G1 X-119.395 Y38.45
N1930 G3 X-114.777 Y36.695 I=AC(-116.949) J=AC(37.932)
N1940 G1 X-114.47 Y37.234
N1950 G2 X-86.163 Y65.072 I=AC(-50.123) J=AC(0.115)
N1960 G1 X-69 Y74.466
N1970 G3 X-66.712 Y77.015 I=AC(-71.475) J=AC(78.989)
N1980 X-70.473 Y80.007 Z-4.5 I=AC(-69.021) J=AC(77.972) TURN=0
N1990 G1 X-95.906 Y61.85 F13770
N2000 G3 X-115.26 Y40.88 I=AC(-50.656) J=AC(0.672)
N2010 X-117.02 Y34.191 I=AC(-103.494) J=AC(34.209)
N2020 G1 X-117.012 Y-62.416
N2030 G3 X-110.451 Y-74.424 I=AC(-102.057) J=AC(-62.042)
N2040 G1 X-101.018 Y-81.106
N2050 G3 X-98.139 Y-77.017 Z-4.6 I=AC(-99.573) J=AC(-79.066) TURN=0 F4590
N2060 G1 X-101.777 Y-74.471
N2070 G2 X-114.321 Y-63.95 I=AC(-50.163) J=AC(-0.195)
N2080 G3 X-117.041 Y-68.023 I=AC(-116.099) J=AC(-65.707)
N2090 G1 X-102.057 Y-74.108
N2100 G3 X-99.833 Y-74.66 I=AC(-98.232) J=AC(-63.449)
N2110 G1 X-70.053 Y-79.428
N2120 G3 X-68.458 Y-74.766 I=AC(-69.658) J=AC(-76.959)
N2130 G1 X-68.999 Y-74.47
N2140 X-87.024 Y-64.596
N2150 G2 X-95.202 Y-59.158 I=AC(-50.583) J=AC(-0.941)
N2160 G3 X-100.588 Y-58.436 I=AC(-98.524) J=AC(-63.495)
N2170 X-99.975 Y-63.229 Z-4.5 I=AC(-99.643) J=AC(-60.751) TURN=0
N2180 G1 X-97.054 Y-63.62
N2190 G3 X-95.202 Y-59.158 Z-4.6 I=AC(-96.722) J=AC(-61.142) TURN=0
N2200 G2 X-114.466 Y-37.246 I=AC(-50.15) J=AC(-0.124)
N2210 G1 X-117.02 Y-32.808
N2220 G3 X-121.071 Y-35.698 Z-4.5 I=AC(-119.187) J=AC(-34.055) TURN=0
N2230 G1 X-107.565 Y-51.179 F13770
N2240 G3 X-88.258 Y-66.852 I=AC(-50.093) J=AC(-0.108)
N2250 G1 X-72.37 Y-75.556
N2260 G3 X-67.496 Y-76.967 I=AC(-66.223) J=AC(-63.449)
N2270 G1 X-34.836 Y-80.531
N2280 G3 X-32.287 Y-77.016 Z-4.6 I=AC(-34.565) J=AC(-78.046) TURN=0 F4590
N2290 X-34.802 Y-74.469 I=AC(-36.985) J=AC(-79.141)
N2300 G2 X-39.41 Y-72.137 I=AC(-1.837) J=AC(-3.63)
N2310 G1 X-78.887 Y-50.531
N2320 G2 X-78.361 Y50.818 I=AC(-50.005) J=AC(-0.005)
N2330 G1 X-38.592 Y72.579
N2340 G2 X-34.806 Y74.467 I=AC(-1.812) J=AC(3.592)
N2350 G3 X-32.286 Y77.025 I=AC(-36.989) J=AC(79.139)
N2360 G2 X-29.986 Y78.499 Z-4.5 I=AC(-30.006) J=AC(76) TURN=0
N2370 G1 X96.726 Y77.47 F13770
N2380 G2 X98.14 Y77.017 Z-4.6 I=AC(96.706) J=AC(74.97) TURN=0 F4590
N2390 G1 X101.775 Y74.471
N2400 G2 X114.324 Y63.946 I=AC(50.132) J=AC(0.158)
N2410 G3 X117.033 Y68.029 I=AC(116.091) J=AC(65.713)
N2420 G1 X102.054 Y74.108
N2430 G3 X99.831 Y74.66 I=AC(98.23) J=AC(63.449)
N2440 G1 X70.049 Y79.428
N2450 G3 X68.453 Y74.766 I=AC(69.653) J=AC(76.959)
N2460 G1 X68.994 Y74.47
N2470 X87.116 Y64.538
N2480 G2 X114.466 Y37.238 I=AC(50.096) J=AC(0.1)
N2490 G1 X117.018 Y32.863
N2500 G2 X117.359 Y31.614 Z-4.5 I=AC(114.859) J=AC(31.603) TURN=0
N2510 G1 X117.758 Y-59.471 F13770
N2520 G2 X117.023 Y-61.252 Z-4.6 I=AC(115.258) J=AC(-59.481) TURN=0 F4590
N2530 G1 X114.319 Y-63.948
N2540 G2 X101.785 Y-74.465 I=AC(50.164) J=AC(-0.212)
N2550 G3 X105.354 Y-77.811 I=AC(103.217) J=AC(-76.514)
N2560 G1 X113.12 Y-65.014
N2570 G3 X114.587 Y-61.174 I=AC(103.449) J=AC(-59.119)
N2580 G1 X119.386 Y-38.469
N2590 G3 X114.777 Y-36.699 I=AC(116.94) J=AC(-37.952)
N2600 G1 X114.47 Y-37.23
N2610 G2 X86.163 Y-65.072 I=AC(50.163) J=AC(-0.161)
N2620 G1 X69 Y-74.466
N2630 G3 X66.712 Y-77.015 I=AC(71.475) J=AC(-78.989)
N2640 X70.473 Y-80.007 Z-4.5 I=AC(69.021) J=AC(-77.972) TURN=0
N2650 G1 X95.907 Y-61.851 F13770
N2660 G3 X115.262 Y-40.874 I=AC(50.663) J=AC(-0.687)
N2670 X117.02 Y-34.189 I=AC(103.494) J=AC(-34.206)
N2680 G1 X117.016 Y34.437
N2690 G3 X114.571 Y41.987 I=AC(103.293) J=AC(34.165)
N2700 X88.347 Y66.795 I=AC(50.165) J=AC(0.169)
N2710 G1 X72.366 Y75.554
N2720 G3 X67.49 Y76.967 I=AC(66.216) J=AC(63.449)
N2730 G1 X34.836 Y80.531
N2740 G3 X32.287 Y77.016 Z-4.6 I=AC(34.565) J=AC(78.046) TURN=0 F4590
N2750 X34.802 Y74.469 I=AC(36.985) J=AC(79.141)
N2760 G2 X39.413 Y72.135 I=AC(1.835) J=AC(3.625)
N2770 G1 X79.095 Y50.406
N2780 G2 X78.361 Y-50.818 I=AC(50.009) J=AC(0.002)
N2790 G1 X38.592 Y-72.579
N2800 G2 X34.806 Y-74.467 I=AC(1.812) J=AC(-3.592)
N2810 X31.249 Y-72.144 I=AC(33.748) J=AC(-72.202)
N2820 G1 X31.485 Y-62.069
N2830 G3 X27.927 Y-59.745 I=AC(28.985) J=AC(-62.01)
N2840 G2 X-31.61 Y-57.881 I=AC(-0.001) J=AC(-0.02)
N2850 G1 X-71.226 Y-36.189
N2860 G2 X-70.559 Y36.563 I=AC(-50.004) J=AC(-0.005)
N2870 G1 X-31.031 Y58.195
N2880 G2 X31.605 Y57.884 I=AC(-0.001) J=AC(0.011)
N2890 G1 X71.305 Y36.142
N2900 G2 X70.559 Y-36.563 I=AC(50.001) J=AC(0.004)
N2910 G1 X44.168 Y-51.008
N2920 G2 X42.194 Y-51.192 I=AC(42.968) J=AC(-48.815)
N2930 G1 X22.879 Y-44.911
N2940 G3 X21.047 Y-45.023 I=AC(22.106) J=AC(-47.288)
N2950 G2 X-23.81 Y-43.625 I=AC(-0.001) J=AC(-0.021)
N2960 G1 X-63.088 Y-22.124
N2970 G2 X-62.757 Y22.309 I=AC(-50) J=AC(-0.004)
N2980 G1 X-22.783 Y44.172
N2990 G2 X23.81 Y43.625 I=AC(-0.001) J=AC(0.01)
N3000 G1 X63.051 Y22.142
N3010 G2 X62.757 Y-22.309 I=AC(50.002) J=AC(0.002)
N3020 G1 X22.783 Y-44.172
N3030 G2 X21.047 Y-45.023 I=AC(2.411) J=AC(-4.828)
N3040 G3 X18.128 Y-49.024 I=AC(23.221) J=AC(-49.676)
N3050 X20.365 Y-51.83 Z-4.5 I=AC(20.607) J=AC(-49.341) TURN=0
N3060 G1 X116.992 Y-61.26 F13770
N3070 X117.013 Y-61.262 F4590
N3080 Z-4.6
N3090 Z-5.2
N3100 X114.319 Y-63.948
N3110 G2 X101.785 Y-74.465 I=AC(50.164) J=AC(-0.212)
N3120 G3 X105.354 Y-77.811 I=AC(103.217) J=AC(-76.514)
N3130 G1 X113.12 Y-65.014
N3140 G3 X114.587 Y-61.174 I=AC(103.449) J=AC(-59.119)
N3150 G1 X119.386 Y-38.469
N3160 G3 X114.777 Y-36.699 I=AC(116.94) J=AC(-37.952)
N3170 G1 X114.47 Y-37.23
N3180 G2 X86.163 Y-65.072 I=AC(50.163) J=AC(-0.161)
N3190 G1 X69 Y-74.466
N3200 G3 X66.712 Y-77.015 I=AC(71.475) J=AC(-78.989)
N3210 X70.473 Y-80.007 Z-5.1 I=AC(69.021) J=AC(-77.972) TURN=0
N3220 G1 X95.907 Y-61.851 F13770
N3230 G3 X115.262 Y-40.874 I=AC(50.663) J=AC(-0.687)
N3240 X117.02 Y-34.189 I=AC(103.494) J=AC(-34.206)
N3250 G1 X117.014 Y62.548
N3260 G3 X110.552 Y74.355 I=AC(102.018) J=AC(62.012)
N3270 G1 X101.019 Y81.105
N3280 G3 X98.14 Y77.017 Z-5.2 I=AC(99.575) J=AC(79.065) TURN=0 F4590
N3290 G1 X101.775 Y74.471
N3300 G2 X114.324 Y63.946 I=AC(50.132) J=AC(0.158)
N3310 G3 X117.033 Y68.029 I=AC(116.091) J=AC(65.713)
N3320 G1 X102.054 Y74.108
N3330 G3 X99.831 Y74.66 I=AC(98.23) J=AC(63.449)
N3340 G1 X70.049 Y79.428
N3350 G3 X68.453 Y74.766 I=AC(69.653) J=AC(76.959)
N3360 G1 X68.994 Y74.47
N3370 X87.116 Y64.538
N3380 G2 X114.466 Y37.238 I=AC(50.096) J=AC(0.1)
N3390 G1 X117.018 Y32.863
N3400 G3 X121.059 Y35.769 Z-5.1 I=AC(119.178) J=AC(34.122) TURN=0
N3410 G1 X107.596 Y51.145 F13770
N3420 G3 X88.347 Y66.795 I=AC(50.201) J=AC(0.218)
N3430 G1 X72.366 Y75.554
N3440 G3 X67.49 Y76.967 I=AC(66.216) J=AC(63.449)
N3450 G1 X34.836 Y80.531
N3460 G3 X32.287 Y77.016 Z-5.2 I=AC(34.565) J=AC(78.046) TURN=0 F4590
N3470 X34.802 Y74.469 I=AC(36.985) J=AC(79.141)
N3480 G2 X39.413 Y72.135 I=AC(1.835) J=AC(3.625)
N3490 G1 X79.095 Y50.406
N3500 G2 X78.361 Y-50.818 I=AC(50.009) J=AC(0.002)
N3510 G1 X38.592 Y-72.579
N3520 G2 X34.806 Y-74.467 I=AC(1.812) J=AC(-3.592)
N3530 G3 X32.286 Y-77.025 I=AC(36.989) J=AC(-79.139)
N3540 G2 X29.986 Y-78.499 Z-5.1 I=AC(30.006) J=AC(-76) TURN=0
N3550 G1 X-96.726 Y-77.469 F13770
N3560 G2 X-98.139 Y-77.017 Z-5.2 I=AC(-96.706) J=AC(-74.969) TURN=0 F4590
N3570 G1 X-101.777 Y-74.471
N3580 G2 X-114.321 Y-63.95 I=AC(-50.163) J=AC(-0.195)
N3590 G3 X-117.041 Y-68.023 I=AC(-116.099) J=AC(-65.707)
N3600 G1 X-102.057 Y-74.108
N3610 G3 X-99.833 Y-74.66 I=AC(-98.232) J=AC(-63.449)
N3620 G1 X-70.053 Y-79.428
N3630 G3 X-68.458 Y-74.766 I=AC(-69.658) J=AC(-76.959)
N3640 G1 X-68.999 Y-74.47
N3650 X-87.024 Y-64.596
N3660 G2 X-95.202 Y-59.158 I=AC(-50.583) J=AC(-0.941)
N3670 G3 X-100.588 Y-58.436 I=AC(-98.524) J=AC(-63.495)
N3680 X-99.975 Y-63.229 Z-5.1 I=AC(-99.643) J=AC(-60.751) TURN=0
N3690 G1 X-97.054 Y-63.62
N3700 G3 X-95.202 Y-59.158 Z-5.2 I=AC(-96.722) J=AC(-61.142) TURN=0
N3710 G2 X-114.466 Y-37.246 I=AC(-50.15) J=AC(-0.124)
N3720 G1 X-117.02 Y-32.808
N3730 G2 X-117.353 Y-31.572 Z-5.1 I=AC(-114.853) J=AC(-31.561) TURN=0
N3740 G1 X-117.753 Y59.456 F13770
N3750 G2 X-117.024 Y61.231 Z-5.2 I=AC(-115.253) J=AC(59.467) TURN=0 F4590
N3760 G1 X-114.32 Y63.946
N3770 G2 X-101.786 Y74.465 I=AC(-50.496) J=AC(0.628)
N3780 G3 X-105.344 Y77.819 I=AC(-103.207) J=AC(76.522)
N3790 G1 X-113.121 Y65.013
N3800 G3 X-114.465 Y61.751 I=AC(-103.449) J=AC(59.12)
N3810 G1 X-119.395 Y38.45
N3820 G3 X-114.777 Y36.695 I=AC(-116.949) J=AC(37.932)
N3830 G1 X-114.47 Y37.234
N3840 G2 X-86.163 Y65.072 I=AC(-50.123) J=AC(0.115)
N3850 G1 X-69 Y74.466
N3860 G3 X-66.712 Y77.015 I=AC(-71.475) J=AC(78.989)
N3870 X-70.473 Y80.007 Z-5.1 I=AC(-69.021) J=AC(77.972) TURN=0
N3880 G1 X-95.906 Y61.85 F13770
N3890 G3 X-115.26 Y40.88 I=AC(-50.656) J=AC(0.672)
N3900 X-117.02 Y34.191 I=AC(-103.494) J=AC(34.209)
N3910 G1 X-117.016 Y-34.444
N3920 G3 X-114.566 Y-42.002 I=AC(-103.273) J=AC(-34.165)
N3930 X-88.258 Y-66.852 I=AC(-50.056) J=AC(-0.059)
N3940 G1 X-72.37 Y-75.556
N3950 G3 X-67.496 Y-76.967 I=AC(-66.223) J=AC(-63.449)
N3960 G1 X-34.836 Y-80.531
N3970 G3 X-32.287 Y-77.016 Z-5.2 I=AC(-34.565) J=AC(-78.046) TURN=0 F4590
N3980 X-34.802 Y-74.469 I=AC(-36.985) J=AC(-79.141)
N3990 G2 X-39.41 Y-72.137 I=AC(-1.837) J=AC(-3.63)
N4000 G1 X-78.887 Y-50.531
N4010 G2 X-78.361 Y50.818 I=AC(-50.005) J=AC(-0.005)
N4020 G1 X-38.592 Y72.579
N4030 G2 X-34.806 Y74.467 I=AC(-1.812) J=AC(3.592)
N4040 X-31.249 Y72.144 I=AC(-33.748) J=AC(72.202)
N4050 G1 X-31.485 Y62.069
N4060 G3 X-27.927 Y59.745 I=AC(-28.985) J=AC(62.01)
N4070 G2 X31.605 Y57.884 I=AC(0.001) J=AC(0.02)
N4080 G1 X71.305 Y36.142
N4090 G2 X70.559 Y-36.563 I=AC(50.001) J=AC(0.004)
N4100 G1 X31.031 Y-58.195
N4110 G2 X-31.61 Y-57.881 I=AC(0.001) J=AC(-0.011)
N4120 G1 X-71.226 Y-36.189
N4130 G2 X-70.559 Y36.563 I=AC(-50.004) J=AC(-0.005)
N4140 G1 X-44.168 Y51.008
N4150 G2 X-42.194 Y51.192 I=AC(-42.967) J=AC(48.815)
N4160 G1 X-22.879 Y44.911
N4170 G3 X-21.047 Y45.023 I=AC(-22.106) J=AC(47.288)
N4180 G2 X23.81 Y43.625 I=AC(0.001) J=AC(0.021)
N4190 G1 X63.051 Y22.142
N4200 G2 X62.757 Y-22.309 I=AC(50.002) J=AC(0.002)
N4210 G1 X22.783 Y-44.172
N4220 G2 X-23.81 Y-43.625 I=AC(0.001) J=AC(-0.01)
N4230 G1 X-63.088 Y-22.124
N4240 G2 X-62.757 Y22.309 I=AC(-50) J=AC(-0.004)
N4250 G1 X-22.783 Y44.172
N4260 G2 X-21.047 Y45.023 I=AC(-2.412) J=AC(4.829)
N4270 G3 X-18.127 Y49.025 I=AC(-23.221) J=AC(49.676)
N4280 X-20.365 Y51.83 Z-5.1 I=AC(-20.607) J=AC(49.342) TURN=0
N4290 G1 X-116.992 Y61.24 F13770
N4300 X-117.013 Y61.242 F4590
N4310 Z-5.2
N4320 Z-5.8
N4330 X-114.32 Y63.946
N4340 G2 X-101.786 Y74.465 I=AC(-50.496) J=AC(0.628)
N4350 G3 X-105.344 Y77.819 I=AC(-103.207) J=AC(76.522)
N4360 G1 X-113.121 Y65.013
N4370 G3 X-114.465 Y61.751 I=AC(-103.449) J=AC(59.12)
N4380 G1 X-119.395 Y38.45
N4390 G3 X-114.777 Y36.695 I=AC(-116.949) J=AC(37.932)
N4400 G1 X-114.47 Y37.234
N4410 G2 X-86.163 Y65.072 I=AC(-50.123) J=AC(0.115)
N4420 G1 X-69 Y74.466
N4430 G3 X-66.712 Y77.015 I=AC(-71.475) J=AC(78.989)
N4440 X-70.473 Y80.007 Z-5.7 I=AC(-69.021) J=AC(77.972) TURN=0
N4450 G1 X-95.906 Y61.85 F13770
N4460 G3 X-115.26 Y40.88 I=AC(-50.625) J=AC(0.643)
N4470 X-117.02 Y34.432 I=AC(-103.448) J=AC(34.192)
N4480 G1 X-117.012 Y-62.416
N4490 G3 X-110.451 Y-74.424 I=AC(-102.057) J=AC(-62.042)
N4500 G1 X-101.018 Y-81.106
N4510 G3 X-98.139 Y-77.017 Z-5.8 I=AC(-99.573) J=AC(-79.066) TURN=0 F4590
N4520 G1 X-101.777 Y-74.471
N4530 G2 X-114.321 Y-63.95 I=AC(-50.163) J=AC(-0.195)
N4540 G3 X-117.041 Y-68.023 I=AC(-116.099) J=AC(-65.707)
N4550 G1 X-102.057 Y-74.108
N4560 G3 X-99.833 Y-74.66 I=AC(-98.232) J=AC(-63.449)
N4570 G1 X-70.053 Y-79.428
N4580 G3 X-68.458 Y-74.766 I=AC(-69.658) J=AC(-76.959)
N4590 G1 X-68.999 Y-74.47
N4600 X-87.024 Y-64.596
N4610 G2 X-95.202 Y-59.158 I=AC(-50.583) J=AC(-0.941)
N4620 G3 X-100.588 Y-58.436 I=AC(-98.524) J=AC(-63.495)
N4630 X-99.975 Y-63.229 Z-5.7 I=AC(-99.643) J=AC(-60.751) TURN=0
N4640 G1 X-97.054 Y-63.62
N4650 G3 X-95.202 Y-59.158 Z-5.8 I=AC(-96.722) J=AC(-61.142) TURN=0
N4660 G2 X-114.466 Y-37.246 I=AC(-50.15) J=AC(-0.124)
N4670 G1 X-117.02 Y-32.808
N4680 G3 X-121.071 Y-35.698 Z-5.7 I=AC(-119.187) J=AC(-34.055) TURN=0
N4690 G1 X-107.565 Y-51.179 F13770
N4700 G3 X-88.137 Y-66.919 I=AC(-50.197) J=AC(-0.225)
N4710 G1 X-72.37 Y-75.556
N4720 G3 X-67.496 Y-76.967 I=AC(-66.223) J=AC(-63.449)
N4730 G1 X-34.836 Y-80.531
N4740 G3 X-32.287 Y-77.016 Z-5.8 I=AC(-34.565) J=AC(-78.046) TURN=0 F4590
N4750 X-34.802 Y-74.469 I=AC(-36.985) J=AC(-79.141)
N4760 G2 X-39.41 Y-72.137 I=AC(-1.837) J=AC(-3.63)
N4770 G1 X-78.887 Y-50.531
N4780 G2 X-78.361 Y50.818 I=AC(-50.005) J=AC(-0.005)
N4790 G1 X-38.592 Y72.579
N4800 G2 X-34.806 Y74.467 I=AC(-1.812) J=AC(3.592)
N4810 G3 X-32.286 Y77.025 I=AC(-36.989) J=AC(79.139)
N4820 G2 X-29.986 Y78.499 Z-5.7 I=AC(-30.006) J=AC(76) TURN=0
N4830 G1 X96.726 Y77.47 F13770
N4840 G2 X98.14 Y77.017 Z-5.8 I=AC(96.706) J=AC(74.97) TURN=0 F4590
N4850 G1 X101.775 Y74.471
N4860 G2 X114.324 Y63.946 I=AC(50.132) J=AC(0.158)
N4870 G3 X117.033 Y68.029 I=AC(116.091) J=AC(65.713)
N4880 G1 X102.054 Y74.108
N4890 G3 X99.831 Y74.66 I=AC(98.23) J=AC(63.449)
N4900 G1 X70.049 Y79.428
N4910 G3 X68.453 Y74.766 I=AC(69.653) J=AC(76.959)
N4920 G1 X68.994 Y74.47
N4930 X87.116 Y64.538
N4940 G2 X114.466 Y37.238 I=AC(50.096) J=AC(0.1)
N4950 G1 X117.018 Y32.863
N4960 G2 X117.359 Y31.614 Z-5.7 I=AC(114.859) J=AC(31.603) TURN=0
N4970 G1 X117.758 Y-59.471 F13770
N4980 G2 X117.023 Y-61.252 Z-5.8 I=AC(115.258) J=AC(-59.481) TURN=0 F4590
N4990 G1 X114.319 Y-63.948
N5000 G2 X101.785 Y-74.465 I=AC(50.164) J=AC(-0.212)
N5010 G3 X105.354 Y-77.811 I=AC(103.217) J=AC(-76.514)
N5020 G1 X113.12 Y-65.014
N5030 G3 X114.587 Y-61.174 I=AC(103.449) J=AC(-59.119)
N5040 G1 X119.386 Y-38.469
N5050 G3 X114.777 Y-36.699 I=AC(116.94) J=AC(-37.952)
N5060 G1 X114.47 Y-37.23
N5070 G2 X86.163 Y-65.072 I=AC(50.163) J=AC(-0.161)
N5080 G1 X69 Y-74.466
N5090 G3 X66.712 Y-77.015 I=AC(71.475) J=AC(-78.989)
N5100 X70.473 Y-80.007 Z-5.7 I=AC(69.021) J=AC(-77.972) TURN=0
N5110 G1 X95.907 Y-61.851 F13770
N5120 G3 X115.262 Y-40.874 I=AC(50.663) J=AC(-0.687)
N5130 X117.02 Y-34.189 I=AC(103.494) J=AC(-34.206)
N5140 G1 X117.016 Y34.437
N5150 G3 X114.571 Y41.987 I=AC(103.293) J=AC(34.165)
N5160 X88.347 Y66.795 I=AC(50.165) J=AC(0.169)
N5170 G1 X72.366 Y75.554
N5180 G3 X67.49 Y76.967 I=AC(66.216) J=AC(63.449)
N5190 G1 X34.836 Y80.531
N5200 G3 X32.287 Y77.016 Z-5.8 I=AC(34.565) J=AC(78.046) TURN=0 F4590
N5210 X34.802 Y74.469 I=AC(36.985) J=AC(79.141)
N5220 G2 X39.413 Y72.135 I=AC(1.835) J=AC(3.625)
N5230 G1 X79.095 Y50.406
N5240 G2 X78.361 Y-50.818 I=AC(50.009) J=AC(0.002)
N5250 G1 X38.592 Y-72.579
N5260 G2 X34.806 Y-74.467 I=AC(1.812) J=AC(-3.592)
N5270 X31.249 Y-72.144 I=AC(33.748) J=AC(-72.202)
N5280 G1 X31.485 Y-62.069
N5290 G3 X27.927 Y-59.745 I=AC(28.985) J=AC(-62.01)
N5300 G2 X-31.61 Y-57.881 I=AC(-0.001) J=AC(-0.02)
N5310 G1 X-71.226 Y-36.189
N5320 G2 X-70.559 Y36.563 I=AC(-50.004) J=AC(-0.005)
N5330 G1 X-31.031 Y58.195
N5340 G2 X31.605 Y57.884 I=AC(-0.001) J=AC(0.011)
N5350 G1 X71.305 Y36.142
N5360 G2 X70.559 Y-36.563 I=AC(50.001) J=AC(0.004)
N5370 G1 X44.168 Y-51.008
N5380 G2 X42.194 Y-51.192 I=AC(42.968) J=AC(-48.815)
N5390 G1 X22.879 Y-44.911
N5400 G3 X21.047 Y-45.023 I=AC(22.106) J=AC(-47.288)
N5410 G2 X-23.81 Y-43.625 I=AC(-0.001) J=AC(-0.021)
N5420 G1 X-63.088 Y-22.124
N5430 G2 X-62.757 Y22.309 I=AC(-50) J=AC(-0.004)
N5440 G1 X-22.783 Y44.172
N5450 G2 X23.81 Y43.625 I=AC(-0.001) J=AC(0.01)
N5460 G1 X63.051 Y22.142
N5470 G2 X62.757 Y-22.309 I=AC(50.002) J=AC(0.002)
N5480 G1 X22.783 Y-44.172
N5490 G2 X21.047 Y-45.023 I=AC(2.411) J=AC(-4.828)
N5500 G3 X18.128 Y-49.024 I=AC(23.221) J=AC(-49.676)
N5510 X20.365 Y-51.83 Z-5.7 I=AC(20.607) J=AC(-49.341) TURN=0
N5520 G1 X116.992 Y-61.26 F13770
N5530 X117.013 Y-61.262 F4590
N5540 Z-5.8
N5550 Z-6.4
N5560 X114.319 Y-63.948
N5570 G2 X101.785 Y-74.465 I=AC(50.164) J=AC(-0.212)
N5580 G3 X105.354 Y-77.811 I=AC(103.217) J=AC(-76.514)
N5590 G1 X113.12 Y-65.014
N5600 G3 X114.587 Y-61.174 I=AC(103.449) J=AC(-59.119)
N5610 G1 X119.386 Y-38.469
N5620 G3 X114.777 Y-36.699 I=AC(116.94) J=AC(-37.952)
N5630 G1 X114.47 Y-37.23
N5640 G2 X86.163 Y-65.072 I=AC(50.163) J=AC(-0.161)
N5650 G1 X69 Y-74.466
N5660 G3 X66.712 Y-77.015 I=AC(71.475) J=AC(-78.989)
N5670 X70.473 Y-80.007 Z-6.3 I=AC(69.021) J=AC(-77.972) TURN=0
N5680 G1 X95.907 Y-61.851 F13770
N5690 G3 X115.262 Y-40.874 I=AC(50.663) J=AC(-0.687)
N5700 X117.02 Y-34.189 I=AC(103.494) J=AC(-34.206)
N5710 G1 X117.014 Y62.548
N5720 G3 X110.552 Y74.355 I=AC(102.018) J=AC(62.012)
N5730 G1 X101.019 Y81.105
N5740 G3 X98.14 Y77.017 Z-6.4 I=AC(99.575) J=AC(79.065) TURN=0 F4590
N5750 G1 X101.775 Y74.471
N5760 G2 X114.324 Y63.946 I=AC(50.132) J=AC(0.158)
N5770 G3 X117.033 Y68.029 I=AC(116.091) J=AC(65.713)
N5780 G1 X102.054 Y74.108
N5790 G3 X99.831 Y74.66 I=AC(98.23) J=AC(63.449)
N5800 G1 X70.049 Y79.428
N5810 G3 X68.453 Y74.766 I=AC(69.653) J=AC(76.959)
N5820 G1 X68.994 Y74.47
N5830 X87.116 Y64.538
N5840 G2 X114.466 Y37.238 I=AC(50.096) J=AC(0.1)
N5850 G1 X117.018 Y32.863
N5860 G3 X121.059 Y35.769 Z-6.3 I=AC(119.178) J=AC(34.122) TURN=0
N5870 G1 X107.596 Y51.145 F13770
N5880 G3 X88.347 Y66.795 I=AC(50.201) J=AC(0.218)
N5890 G1 X72.366 Y75.554
N5900 G3 X67.49 Y76.967 I=AC(66.216) J=AC(63.449)
N5910 G1 X34.836 Y80.531
N5920 G3 X32.287 Y77.016 Z-6.4 I=AC(34.565) J=AC(78.046) TURN=0 F4590
N5930 X34.802 Y74.469 I=AC(36.985) J=AC(79.141)
N5940 G2 X39.413 Y72.135 I=AC(1.835) J=AC(3.625)
N5950 G1 X79.095 Y50.406
N5960 G2 X78.361 Y-50.818 I=AC(50.009) J=AC(0.002)
N5970 G1 X38.592 Y-72.579
N5980 G2 X34.806 Y-74.467 I=AC(1.812) J=AC(-3.592)
N5990 G3 X32.286 Y-77.025 I=AC(36.989) J=AC(-79.139)
N6000 G2 X29.986 Y-78.499 Z-6.3 I=AC(30.006) J=AC(-76) TURN=0
N6010 G1 X-96.726 Y-77.469 F13770
N6020 G2 X-98.139 Y-77.017 Z-6.4 I=AC(-96.706) J=AC(-74.969) TURN=0 F4590
N6030 G1 X-101.777 Y-74.471
N6040 G2 X-114.321 Y-63.95 I=AC(-50.163) J=AC(-0.195)
N6050 G3 X-117.041 Y-68.023 I=AC(-116.099) J=AC(-65.707)
N6060 G1 X-102.057 Y-74.108
N6070 G3 X-99.833 Y-74.66 I=AC(-98.232) J=AC(-63.449)
N6080 G1 X-70.053 Y-79.428
N6090 G3 X-68.458 Y-74.766 I=AC(-69.658) J=AC(-76.959)
N6100 G1 X-68.999 Y-74.47
N6110 X-87.024 Y-64.596
N6120 G2 X-95.202 Y-59.158 I=AC(-50.583) J=AC(-0.941)
N6130 G3 X-100.588 Y-58.436 I=AC(-98.524) J=AC(-63.495)
N6140 X-99.975 Y-63.229 Z-6.3 I=AC(-99.643) J=AC(-60.751) TURN=0
N6150 G1 X-97.054 Y-63.62
N6160 G3 X-95.202 Y-59.158 Z-6.4 I=AC(-96.722) J=AC(-61.142) TURN=0
N6170 G2 X-114.466 Y-37.246 I=AC(-50.15) J=AC(-0.124)
N6180 G1 X-117.02 Y-32.808
N6190 G2 X-117.353 Y-31.572 Z-6.3 I=AC(-114.853) J=AC(-31.561) TURN=0
N6200 G1 X-117.753 Y59.456 F13770
N6210 G2 X-117.024 Y61.231 Z-6.4 I=AC(-115.253) J=AC(59.467) TURN=0 F4590
N6220 G1 X-114.32 Y63.946
N6230 G2 X-101.786 Y74.465 I=AC(-50.496) J=AC(0.628)
N6240 G3 X-105.344 Y77.819 I=AC(-103.207) J=AC(76.522)
N6250 G1 X-113.121 Y65.013
N6260 G3 X-114.465 Y61.751 I=AC(-103.449) J=AC(59.12)
N6270 G1 X-119.395 Y38.45
N6280 G3 X-114.777 Y36.695 I=AC(-116.949) J=AC(37.932)
N6290 G1 X-114.47 Y37.234
N6300 G2 X-86.163 Y65.072 I=AC(-50.123) J=AC(0.115)
N6310 G1 X-69 Y74.466
N6320 G3 X-66.712 Y77.015 I=AC(-71.475) J=AC(78.989)
N6330 X-70.473 Y80.007 Z-6.3 I=AC(-69.021) J=AC(77.972) TURN=0
N6340 G1 X-95.906 Y61.85 F13770
N6350 G3 X-115.26 Y40.88 I=AC(-50.625) J=AC(0.643)
N6360 X-117.02 Y34.191 I=AC(-103.494) J=AC(34.209)
N6370 G1 X-117.016 Y-34.444
N6380 G3 X-114.566 Y-42.002 I=AC(-103.293) J=AC(-34.171)
N6390 X-88.137 Y-66.919 I=AC(-50.108) J=AC(-0.107)
N6400 G1 X-72.37 Y-75.556
N6410 G3 X-67.496 Y-76.967 I=AC(-66.223) J=AC(-63.449)
N6420 G1 X-34.836 Y-80.531
N6430 G3 X-32.287 Y-77.016 Z-6.4 I=AC(-34.565) J=AC(-78.046) TURN=0 F4590
N6440 X-34.802 Y-74.469 I=AC(-36.985) J=AC(-79.141)
N6450 G2 X-39.41 Y-72.137 I=AC(-1.837) J=AC(-3.63)
N6460 G1 X-78.887 Y-50.531
N6470 G2 X-78.361 Y50.818 I=AC(-50.005) J=AC(-0.005)
N6480 G1 X-38.592 Y72.579
N6490 G2 X-34.806 Y74.467 I=AC(-1.812) J=AC(3.592)
N6500 X-31.249 Y72.144 I=AC(-33.748) J=AC(72.202)
N6510 G1 X-31.485 Y62.069
N6520 G3 X-27.927 Y59.745 I=AC(-28.985) J=AC(62.01)
N6530 G2 X31.605 Y57.884 I=AC(0.001) J=AC(0.02)
N6540 G1 X71.305 Y36.142
N6550 G2 X70.559 Y-36.563 I=AC(50.001) J=AC(0.004)
N6560 G1 X31.031 Y-58.195
N6570 G2 X-31.61 Y-57.881 I=AC(0.001) J=AC(-0.011)
N6580 G1 X-71.226 Y-36.189
N6590 G2 X-70.559 Y36.563 I=AC(-50.004) J=AC(-0.005)
N6600 G1 X-44.168 Y51.008
N6610 G2 X-42.194 Y51.192 I=AC(-42.967) J=AC(48.815)
N6620 G1 X-22.879 Y44.911
N6630 G3 X-21.047 Y45.023 I=AC(-22.106) J=AC(47.288)
N6640 G2 X23.81 Y43.625 I=AC(0.001) J=AC(0.021)
N6650 G1 X63.051 Y22.142
N6660 G2 X62.757 Y-22.309 I=AC(50.002) J=AC(0.002)
N6670 G1 X22.783 Y-44.172
N6680 G2 X-23.81 Y-43.625 I=AC(0.001) J=AC(-0.01)
N6690 G1 X-63.088 Y-22.124
N6700 G2 X-62.757 Y22.309 I=AC(-50) J=AC(-0.004)
N6710 G1 X-22.783 Y44.172
N6720 G2 X-21.047 Y45.023 I=AC(-2.412) J=AC(4.829)
N6730 G3 X-18.127 Y49.025 I=AC(-23.221) J=AC(49.676)
N6740 X-20.365 Y51.83 Z-6.3 I=AC(-20.607) J=AC(49.342) TURN=0
N6750 G1 X-116.992 Y61.24 F13770
N6760 X-117.013 Y61.242 F4590
N6770 Z-6.4
N6780 Z-7
N6790 X-114.32 Y63.946
N6800 G2 X-101.786 Y74.465 I=AC(-50.496) J=AC(0.628)
N6810 G3 X-105.344 Y77.819 I=AC(-103.207) J=AC(76.522)
N6820 G1 X-113.121 Y65.013
N6830 G3 X-114.465 Y61.751 I=AC(-103.449) J=AC(59.12)
N6840 G1 X-119.395 Y38.45
N6850 G3 X-114.777 Y36.695 I=AC(-116.949) J=AC(37.932)
N6860 G1 X-114.47 Y37.234
N6870 G2 X-86.163 Y65.072 I=AC(-50.123) J=AC(0.115)
N6880 G1 X-69 Y74.466
N6890 G3 X-66.712 Y77.015 I=AC(-71.475) J=AC(78.989)
N6900 X-70.473 Y80.007 Z-6.9 I=AC(-69.021) J=AC(77.972) TURN=0
N6910 G1 X-95.906 Y61.85 F13770
N6920 G3 X-115.26 Y40.88 I=AC(-50.625) J=AC(0.643)
N6930 X-117.02 Y34.432 I=AC(-103.448) J=AC(34.192)
N6940 G1 X-117.012 Y-62.416
N6950 G3 X-110.451 Y-74.424 I=AC(-102.056) J=AC(-62.041)
N6960 G1 X-101.018 Y-81.106
N6970 G3 X-98.139 Y-77.017 Z-7 I=AC(-99.573) J=AC(-79.066) TURN=0 F4590
N6980 G1 X-101.777 Y-74.471
N6990 G2 X-114.321 Y-63.95 I=AC(-50.163) J=AC(-0.195)
N7000 G3 X-117.041 Y-68.023 I=AC(-116.099) J=AC(-65.707)
N7010 G1 X-102.057 Y-74.108
N7020 G3 X-99.833 Y-74.66 I=AC(-98.232) J=AC(-63.449)
N7030 G1 X-70.053 Y-79.428
N7040 G3 X-68.458 Y-74.766 I=AC(-69.658) J=AC(-76.959)
N7050 G1 X-68.999 Y-74.47
N7060 X-87.024 Y-64.596
N7070 G2 X-95.202 Y-59.158 I=AC(-50.583) J=AC(-0.941)
N7080 G3 X-100.588 Y-58.436 I=AC(-98.524) J=AC(-63.495)
N7090 X-99.975 Y-63.229 Z-6.9 I=AC(-99.643) J=AC(-60.751) TURN=0
N7100 G1 X-97.054 Y-63.62
N7110 G3 X-95.202 Y-59.158 Z-7 I=AC(-96.722) J=AC(-61.142) TURN=0
N7120 G2 X-114.466 Y-37.246 I=AC(-50.15) J=AC(-0.124)
N7130 G1 X-117.02 Y-32.808
N7140 G3 X-121.071 Y-35.698 Z-6.9 I=AC(-119.187) J=AC(-34.055) TURN=0
N7150 G1 X-107.565 Y-51.179 F13770
N7160 G3 X-88.137 Y-66.919 I=AC(-50.197) J=AC(-0.225)
N7170 G1 X-72.37 Y-75.556
N7180 G3 X-67.496 Y-76.967 I=AC(-66.223) J=AC(-63.449)
N7190 G1 X-34.836 Y-80.531
N7200 G3 X-32.287 Y-77.016 Z-7 I=AC(-34.565) J=AC(-78.046) TURN=0 F4590
N7210 X-34.802 Y-74.469 I=AC(-36.985) J=AC(-79.141)
N7220 G2 X-39.41 Y-72.137 I=AC(-1.837) J=AC(-3.63)
N7230 G1 X-78.887 Y-50.531
N7240 G2 X-78.361 Y50.818 I=AC(-50.005) J=AC(-0.005)
N7250 G1 X-38.592 Y72.579
N7260 G2 X-34.806 Y74.467 I=AC(-1.812) J=AC(3.592)
N7270 G3 X-32.286 Y77.025 I=AC(-36.989) J=AC(79.139)
N7280 G2 X-29.986 Y78.499 Z-6.9 I=AC(-30.006) J=AC(76) TURN=0
N7290 G1 X96.726 Y77.47 F13770
N7300 G2 X98.14 Y77.017 Z-7 I=AC(96.706) J=AC(74.97) TURN=0 F4590
N7310 G1 X101.775 Y74.471
N7320 G2 X114.324 Y63.946 I=AC(50.132) J=AC(0.158)
N7330 G3 X117.033 Y68.029 I=AC(116.091) J=AC(65.713)
N7340 G1 X102.054 Y74.108
N7350 G3 X99.831 Y74.66 I=AC(98.23) J=AC(63.449)
N7360 G1 X70.049 Y79.428
N7370 G3 X68.453 Y74.766 I=AC(69.653) J=AC(76.959)
N7380 G1 X68.994 Y74.47
N7390 X87.116 Y64.538
N7400 G2 X114.466 Y37.238 I=AC(50.096) J=AC(0.1)
N7410 G1 X117.018 Y32.863
N7420 G2 X117.359 Y31.614 Z-6.9 I=AC(114.859) J=AC(31.603) TURN=0
N7430 G1 X117.758 Y-59.471 F13770
N7440 G2 X117.023 Y-61.252 Z-7 I=AC(115.258) J=AC(-59.481) TURN=0 F4590
N7450 G1 X114.319 Y-63.948
N7460 G2 X101.785 Y-74.465 I=AC(50.164) J=AC(-0.212)
N7470 G3 X105.354 Y-77.811 I=AC(103.217) J=AC(-76.514)
N7480 G1 X113.12 Y-65.014
N7490 G3 X114.587 Y-61.174 I=AC(103.449) J=AC(-59.119)
N7500 G1 X119.386 Y-38.469
N7510 G3 X114.777 Y-36.699 I=AC(116.94) J=AC(-37.952)
N7520 G1 X114.47 Y-37.23
N7530 G2 X86.163 Y-65.072 I=AC(50.163) J=AC(-0.161)
N7540 G1 X69 Y-74.466
N7550 G3 X66.712 Y-77.015 I=AC(71.475) J=AC(-78.989)
N7560 X70.473 Y-80.007 Z-6.9 I=AC(69.021) J=AC(-77.972) TURN=0
N7570 G1 X95.907 Y-61.851 F13770
N7580 G3 X115.262 Y-40.874 I=AC(50.663) J=AC(-0.687)
N7590 X117.02 Y-34.189 I=AC(103.494) J=AC(-34.206)
N7600 G1 X117.016 Y34.437
N7610 G3 X114.571 Y41.987 I=AC(103.293) J=AC(34.165)
N7620 X88.347 Y66.795 I=AC(50.165) J=AC(0.169)
N7630 G1 X72.366 Y75.554
N7640 G3 X67.49 Y76.967 I=AC(66.216) J=AC(63.449)
N7650 G1 X34.836 Y80.531
N7660 G3 X32.287 Y77.016 Z-7 I=AC(34.565) J=AC(78.046) TURN=0 F4590
N7670 X34.802 Y74.469 I=AC(36.985) J=AC(79.141)
N7680 G2 X39.413 Y72.135 I=AC(1.835) J=AC(3.625)
N7690 G1 X79.095 Y50.406
N7700 G2 X78.361 Y-50.818 I=AC(50.009) J=AC(0.002)
N7710 G1 X38.592 Y-72.579
N7720 G2 X34.806 Y-74.467 I=AC(1.812) J=AC(-3.592)
N7730 X31.249 Y-72.144 I=AC(33.748) J=AC(-72.202)
N7740 G1 X31.485 Y-62.069
N7750 G3 X27.927 Y-59.745 I=AC(28.985) J=AC(-62.01)
N7760 G2 X-31.61 Y-57.881 I=AC(-0.001) J=AC(-0.02)
N7770 G1 X-71.226 Y-36.189
N7780 G2 X-70.559 Y36.563 I=AC(-50.004) J=AC(-0.005)
N7790 G1 X-31.031 Y58.195
N7800 G2 X31.605 Y57.884 I=AC(-0.001) J=AC(0.011)
N7810 G1 X71.305 Y36.142
N7820 G2 X70.559 Y-36.563 I=AC(50.001) J=AC(0.004)
N7830 G1 X44.168 Y-51.008
N7840 G2 X42.194 Y-51.192 I=AC(42.968) J=AC(-48.815)
N7850 G1 X22.879 Y-44.911
N7860 G3 X21.047 Y-45.023 I=AC(22.106) J=AC(-47.288)
N7870 G2 X-23.81 Y-43.625 I=AC(-0.001) J=AC(-0.021)
N7880 G1 X-63.088 Y-22.124
N7890 G2 X-62.757 Y22.309 I=AC(-50) J=AC(-0.004)
N7900 G1 X-22.783 Y44.172
N7910 G2 X23.81 Y43.625 I=AC(-0.001) J=AC(0.01)
N7920 G1 X63.051 Y22.142
N7930 G2 X62.757 Y-22.309 I=AC(50.002) J=AC(0.002)
N7940 G1 X22.783 Y-44.172
N7950 G2 X21.047 Y-45.023 I=AC(2.411) J=AC(-4.828)
N7960 G3 X18.128 Y-49.024 I=AC(23.221) J=AC(-49.676)
N7970 X20.365 Y-51.83 Z-6.9 I=AC(20.607) J=AC(-49.341) TURN=0
N7980 G1 X116.992 Y-61.26 F13770
N7990 X117.013 Y-61.262 F4590
N8000 Z-7
N8010 Z-7.6
N8020 X114.319 Y-63.948
N8030 G2 X101.785 Y-74.465 I=AC(50.164) J=AC(-0.212)
N8040 G3 X105.354 Y-77.811 I=AC(103.217) J=AC(-76.514)
N8050 G1 X113.12 Y-65.014
N8060 G3 X114.587 Y-61.174 I=AC(103.449) J=AC(-59.119)
N8070 G1 X119.386 Y-38.469
N8080 G3 X114.777 Y-36.699 I=AC(116.94) J=AC(-37.952)
N8090 G1 X114.47 Y-37.23
N8100 G2 X86.163 Y-65.072 I=AC(50.163) J=AC(-0.161)
N8110 G1 X69 Y-74.466
N8120 G3 X66.712 Y-77.015 I=AC(71.475) J=AC(-78.989)
N8130 X70.473 Y-80.007 Z-7.5 I=AC(69.021) J=AC(-77.972) TURN=0
N8140 G1 X95.907 Y-61.851 F13770
N8150 G3 X115.262 Y-40.874 I=AC(50.663) J=AC(-0.687)
N8160 X117.02 Y-34.189 I=AC(103.494) J=AC(-34.206)
N8170 G1 X117.014 Y62.548
N8180 G3 X110.552 Y74.355 I=AC(102.018) J=AC(62.012)
N8190 G1 X101.019 Y81.105
N8200 G3 X98.14 Y77.017 Z-7.6 I=AC(99.575) J=AC(79.065) TURN=0 F4590
N8210 G1 X101.775 Y74.471
N8220 G2 X114.324 Y63.946 I=AC(50.132) J=AC(0.158)
N8230 G3 X117.033 Y68.029 I=AC(116.091) J=AC(65.713)
N8240 G1 X102.054 Y74.108
N8250 G3 X99.831 Y74.66 I=AC(98.23) J=AC(63.449)
N8260 G1 X70.049 Y79.428
N8270 G3 X68.453 Y74.766 I=AC(69.653) J=AC(76.959)
N8280 G1 X68.994 Y74.47
N8290 X87.116 Y64.538
N8300 G2 X114.466 Y37.238 I=AC(50.096) J=AC(0.1)
N8310 G1 X117.018 Y32.863
N8320 G3 X121.059 Y35.769 Z-7.5 I=AC(119.178) J=AC(34.122) TURN=0
N8330 G1 X107.596 Y51.145 F13770
N8340 G3 X88.347 Y66.795 I=AC(50.201) J=AC(0.218)
N8350 G1 X72.366 Y75.554
N8360 G3 X67.49 Y76.967 I=AC(66.216) J=AC(63.449)
N8370 G1 X34.836 Y80.531
N8380 G3 X32.287 Y77.016 Z-7.6 I=AC(34.565) J=AC(78.046) TURN=0 F4590
N8390 X34.802 Y74.469 I=AC(36.985) J=AC(79.141)
N8400 G2 X39.413 Y72.135 I=AC(1.835) J=AC(3.625)
N8410 G1 X79.095 Y50.406
N8420 G2 X78.361 Y-50.818 I=AC(50.009) J=AC(0.002)
N8430 G1 X38.592 Y-72.579
N8440 G2 X34.806 Y-74.467 I=AC(1.812) J=AC(-3.592)
N8450 G3 X32.286 Y-77.025 I=AC(36.989) J=AC(-79.139)
N8460 G2 X29.986 Y-78.499 Z-7.5 I=AC(30.006) J=AC(-76) TURN=0
N8470 G1 X-96.726 Y-77.469 F13770
N8480 G2 X-98.139 Y-77.017 Z-7.6 I=AC(-96.706) J=AC(-74.969) TURN=0 F4590
N8490 G1 X-101.777 Y-74.471
N8500 G2 X-114.321 Y-63.95 I=AC(-50.163) J=AC(-0.195)
N8510 G3 X-117.041 Y-68.023 I=AC(-116.099) J=AC(-65.707)
N8520 G1 X-102.057 Y-74.108
N8530 G3 X-99.833 Y-74.66 I=AC(-98.232) J=AC(-63.449)
N8540 G1 X-70.053 Y-79.428
N8550 G3 X-68.458 Y-74.766 I=AC(-69.658) J=AC(-76.959)
N8560 G1 X-68.999 Y-74.47
N8570 X-87.024 Y-64.596
N8580 G2 X-95.202 Y-59.158 I=AC(-50.583) J=AC(-0.941)
N8590 G3 X-100.588 Y-58.436 I=AC(-98.524) J=AC(-63.495)
N8600 X-99.975 Y-63.229 Z-7.5 I=AC(-99.643) J=AC(-60.751) TURN=0
N8610 G1 X-97.054 Y-63.62
N8620 G3 X-95.202 Y-59.158 Z-7.6 I=AC(-96.722) J=AC(-61.142) TURN=0
N8630 G2 X-114.466 Y-37.246 I=AC(-50.15) J=AC(-0.124)
N8640 G1 X-117.02 Y-32.808
N8650 G2 X-117.353 Y-31.572 Z-7.5 I=AC(-114.853) J=AC(-31.561) TURN=0
N8660 G1 X-117.753 Y59.456 F13770
N8670 G2 X-117.024 Y61.231 Z-7.6 I=AC(-115.253) J=AC(59.467) TURN=0 F4590
N8680 G1 X-114.32 Y63.946
N8690 G2 X-101.786 Y74.465 I=AC(-50.496) J=AC(0.628)
N8700 G3 X-105.344 Y77.819 I=AC(-103.207) J=AC(76.522)
N8710 G1 X-113.121 Y65.013
N8720 G3 X-114.465 Y61.751 I=AC(-103.449) J=AC(59.12)
N8730 G1 X-119.395 Y38.45
N8740 G3 X-114.777 Y36.695 I=AC(-116.949) J=AC(37.932)
N8750 G1 X-114.47 Y37.234
N8760 G2 X-86.163 Y65.072 I=AC(-50.123) J=AC(0.115)
N8770 G1 X-69 Y74.466
N8780 G3 X-66.712 Y77.015 I=AC(-71.475) J=AC(78.989)
N8790 X-70.473 Y80.007 Z-7.5 I=AC(-69.021) J=AC(77.972) TURN=0
N8800 G1 X-95.906 Y61.85 F13770
N8810 G3 X-115.26 Y40.88 I=AC(-50.625) J=AC(0.643)
N8820 X-117.02 Y34.191 I=AC(-103.494) J=AC(34.209)
N8830 G1 X-117.016 Y-34.444
N8840 G3 X-114.566 Y-42.002 I=AC(-103.293) J=AC(-34.171)
N8850 X-88.137 Y-66.919 I=AC(-50.108) J=AC(-0.107)
N8860 G1 X-72.37 Y-75.556
N8870 G3 X-67.496 Y-76.967 I=AC(-66.223) J=AC(-63.449)
N8880 G1 X-34.836 Y-80.531
N8890 G3 X-32.287 Y-77.016 Z-7.6 I=AC(-34.565) J=AC(-78.046) TURN=0 F4590
N8900 X-34.802 Y-74.469 I=AC(-36.985) J=AC(-79.141)
N8910 G2 X-39.41 Y-72.137 I=AC(-1.837) J=AC(-3.63)
N8920 G1 X-78.887 Y-50.531
N8930 G2 X-78.361 Y50.818 I=AC(-50.005) J=AC(-0.005)
N8940 G1 X-38.592 Y72.579
N8950 G2 X-34.806 Y74.467 I=AC(-1.812) J=AC(3.592)
N8960 X-31.249 Y72.144 I=AC(-33.748) J=AC(72.202)
N8970 G1 X-31.485 Y62.069
N8980 G3 X-27.927 Y59.745 I=AC(-28.985) J=AC(62.01)
N8990 G2 X31.605 Y57.884 I=AC(0.001) J=AC(0.02)
N9000 G1 X71.305 Y36.142
N9010 G2 X70.559 Y-36.563 I=AC(50.001) J=AC(0.004)
N9020 G1 X31.031 Y-58.195
N9030 G2 X-31.61 Y-57.881 I=AC(0.001) J=AC(-0.011)
N9040 G1 X-71.226 Y-36.189
N9050 G2 X-70.559 Y36.563 I=AC(-50.004) J=AC(-0.005)
N9060 G1 X-44.168 Y51.008
N9070 G2 X-42.194 Y51.192 I=AC(-42.967) J=AC(48.815)
N9080 G1 X-22.879 Y44.911
N9090 G3 X-21.047 Y45.023 I=AC(-22.106) J=AC(47.288)
N9100 G2 X23.81 Y43.625 I=AC(0.001) J=AC(0.021)
N9110 G1 X63.051 Y22.142
N9120 G2 X62.757 Y-22.309 I=AC(50.002) J=AC(0.002)
N9130 G1 X22.783 Y-44.172
N9140 G2 X-23.81 Y-43.625 I=AC(0.001) J=AC(-0.01)
N9150 G1 X-63.088 Y-22.124
N9160 G2 X-62.757 Y22.309 I=AC(-50) J=AC(-0.004)
N9170 G1 X-22.783 Y44.172
N9180 G2 X-21.047 Y45.023 I=AC(-2.412) J=AC(4.829)
N9190 G3 X-18.127 Y49.025 I=AC(-23.221) J=AC(49.676)
N9200 X-20.365 Y51.83 Z-7.5 I=AC(-20.607) J=AC(49.342) TURN=0
N9210 G1 X-116.992 Y61.24 F13770
N9220 X-117.013 Y61.242 F4590
N9230 Z-7.6
N9240 Z-8.2
N9250 X-114.32 Y63.946
N9260 G2 X-101.786 Y74.465 I=AC(-50.496) J=AC(0.628)
N9270 G3 X-105.344 Y77.819 I=AC(-103.207) J=AC(76.522)
N9280 G1 X-113.121 Y65.013
N9290 G3 X-114.465 Y61.751 I=AC(-103.449) J=AC(59.12)
N9300 G1 X-119.395 Y38.45
N9310 G3 X-114.777 Y36.695 I=AC(-116.949) J=AC(37.932)
N9320 G1 X-114.47 Y37.234
N9330 G2 X-86.163 Y65.072 I=AC(-50.123) J=AC(0.115)
N9340 G1 X-69 Y74.466
N9350 G3 X-66.712 Y77.015 I=AC(-71.475) J=AC(78.989)
N9360 X-70.473 Y80.007 Z-8.1 I=AC(-69.021) J=AC(77.972) TURN=0
N9370 G1 X-95.906 Y61.85 F13770
N9380 G3 X-115.26 Y40.88 I=AC(-50.625) J=AC(0.643)
N9390 X-117.02 Y34.432 I=AC(-103.448) J=AC(34.192)
N9400 G1 X-117.012 Y-62.416
N9410 G3 X-110.451 Y-74.424 I=AC(-102.057) J=AC(-62.042)
N9420 G1 X-101.018 Y-81.106
N9430 G3 X-98.139 Y-77.017 Z-8.2 I=AC(-99.573) J=AC(-79.066) TURN=0 F4590
N9440 G1 X-101.777 Y-74.471
N9450 G2 X-114.321 Y-63.95 I=AC(-50.163) J=AC(-0.195)
N9460 G3 X-117.041 Y-68.023 I=AC(-116.099) J=AC(-65.707)
N9470 G1 X-102.057 Y-74.108
N9480 G3 X-99.833 Y-74.66 I=AC(-98.232) J=AC(-63.449)
N9490 G1 X-70.053 Y-79.428
N9500 G3 X-68.458 Y-74.766 I=AC(-69.658) J=AC(-76.959)
N9510 G1 X-68.999 Y-74.47
N9520 X-87.024 Y-64.596
N9530 G2 X-95.202 Y-59.158 I=AC(-50.583) J=AC(-0.941)
N9540 G3 X-100.588 Y-58.436 I=AC(-98.524) J=AC(-63.495)
N9550 X-99.975 Y-63.229 Z-8.1 I=AC(-99.643) J=AC(-60.751) TURN=0
N9560 G1 X-97.054 Y-63.62
N9570 G3 X-95.202 Y-59.158 Z-8.2 I=AC(-96.722) J=AC(-61.142) TURN=0
N9580 G2 X-114.466 Y-37.246 I=AC(-50.15) J=AC(-0.124)
N9590 G1 X-117.02 Y-32.808
N9600 G3 X-121.071 Y-35.698 Z-8.1 I=AC(-119.187) J=AC(-34.055) TURN=0
N9610 G1 X-107.565 Y-51.179 F13770
N9620 G3 X-88.137 Y-66.919 I=AC(-50.197) J=AC(-0.225)
N9630 G1 X-72.37 Y-75.556
N9640 G3 X-67.496 Y-76.967 I=AC(-66.223) J=AC(-63.449)
N9650 G1 X-34.836 Y-80.531
N9660 G3 X-32.287 Y-77.016 Z-8.2 I=AC(-34.565) J=AC(-78.046) TURN=0 F4590
N9670 X-34.802 Y-74.469 I=AC(-36.985) J=AC(-79.141)
N9680 G2 X-39.41 Y-72.137 I=AC(-1.837) J=AC(-3.63)
N9690 G1 X-78.887 Y-50.531
N9700 G2 X-78.361 Y50.818 I=AC(-50.005) J=AC(-0.005)
N9710 G1 X-38.592 Y72.579
N9720 G2 X-34.806 Y74.467 I=AC(-1.812) J=AC(3.592)
N9730 G3 X-32.286 Y77.025 I=AC(-36.989) J=AC(79.139)
N9740 G2 X-29.986 Y78.499 Z-8.1 I=AC(-30.006) J=AC(76) TURN=0
N9750 G1 X96.726 Y77.47 F13770
N9760 G2 X98.14 Y77.017 Z-8.2 I=AC(96.706) J=AC(74.97) TURN=0 F4590
N9770 G1 X101.775 Y74.471
N9780 G2 X114.324 Y63.946 I=AC(50.132) J=AC(0.158)
N9790 G3 X117.033 Y68.029 I=AC(116.091) J=AC(65.713)
N9800 G1 X102.054 Y74.108
N9810 G3 X99.831 Y74.66 I=AC(98.23) J=AC(63.449)
N9820 G1 X70.049 Y79.428
N9830 G3 X68.453 Y74.766 I=AC(69.653) J=AC(76.959)
N9840 G1 X68.994 Y74.47
N9850 X87.116 Y64.538
N9860 G2 X114.466 Y37.238 I=AC(50.096) J=AC(0.1)
N9870 G1 X117.018 Y32.863
N9880 G2 X117.359 Y31.614 Z-8.1 I=AC(114.859) J=AC(31.603) TURN=0
N9890 G1 X117.758 Y-59.471 F13770
N9900 G2 X117.023 Y-61.252 Z-8.2 I=AC(115.258) J=AC(-59.481) TURN=0 F4590
N9910 G1 X114.319 Y-63.948
N9920 G2 X101.785 Y-74.465 I=AC(50.164) J=AC(-0.212)
N9930 G3 X105.354 Y-77.811 I=AC(103.217) J=AC(-76.514)
N9940 G1 X113.12 Y-65.014
N9950 G3 X114.587 Y-61.174 I=AC(103.449) J=AC(-59.119)
N9960 G1 X119.386 Y-38.469
N9970 G3 X114.777 Y-36.699 I=AC(116.94) J=AC(-37.952)
N9980 G1 X114.47 Y-37.23
N9990 G2 X86.163 Y-65.072 I=AC(50.163) J=AC(-0.161)
N10 G1 X69 Y-74.466
N20 G3 X66.712 Y-77.015 I=AC(71.475) J=AC(-78.989)
N30 X70.473 Y-80.007 Z-8.1 I=AC(69.021) J=AC(-77.972) TURN=0
N40 G1 X95.907 Y-61.851 F13770
N50 G3 X115.262 Y-40.874 I=AC(50.663) J=AC(-0.687)
N60 X117.02 Y-34.189 I=AC(103.494) J=AC(-34.206)
N70 G1 X117.016 Y34.437
N80 G3 X114.571 Y41.987 I=AC(103.274) J=AC(34.158)
N90 X88.222 Y66.864 I=AC(50.221) J=AC(0.221)
N100 G1 X72.366 Y75.554
N110 G3 X67.49 Y76.967 I=AC(66.216) J=AC(63.449)
N120 G1 X34.836 Y80.531
N130 G3 X32.287 Y77.016 Z-8.2 I=AC(34.565) J=AC(78.046) TURN=0 F4590
N140 X34.802 Y74.469 I=AC(36.985) J=AC(79.141)
N150 G2 X39.413 Y72.135 I=AC(1.835) J=AC(3.625)
N160 G1 X79.095 Y50.406
N170 G2 X78.361 Y-50.818 I=AC(50.009) J=AC(0.002)
N180 G1 X38.592 Y-72.579
N190 G2 X34.806 Y-74.467 I=AC(1.812) J=AC(-3.592)
N200 X31.249 Y-72.144 I=AC(33.748) J=AC(-72.202)
N210 G1 X31.485 Y-62.069
N220 G3 X27.927 Y-59.745 I=AC(28.985) J=AC(-62.01)
N230 G2 X-31.61 Y-57.881 I=AC(-0.001) J=AC(-0.02)
N240 G1 X-71.226 Y-36.189
N250 G2 X-70.559 Y36.563 I=AC(-50.004) J=AC(-0.005)
N260 G1 X-31.031 Y58.195
N270 G2 X31.605 Y57.884 I=AC(-0.001) J=AC(0.011)
N280 G1 X71.305 Y36.142
N290 G2 X70.559 Y-36.563 I=AC(50.001) J=AC(0.004)
N300 G1 X44.168 Y-51.008
N310 G2 X42.194 Y-51.192 I=AC(42.968) J=AC(-48.815)
N320 G1 X22.879 Y-44.911
N330 G3 X21.047 Y-45.023 I=AC(22.106) J=AC(-47.288)
N340 G2 X-23.81 Y-43.625 I=AC(-0.001) J=AC(-0.021)
N350 G1 X-63.088 Y-22.124
N360 G2 X-62.757 Y22.309 I=AC(-50) J=AC(-0.004)
N370 G1 X-22.783 Y44.172
N380 G2 X23.81 Y43.625 I=AC(-0.001) J=AC(0.01)
N390 G1 X63.051 Y22.142
N400 G2 X62.757 Y-22.309 I=AC(50.002) J=AC(0.002)
N410 G1 X22.783 Y-44.172
N420 G2 X21.047 Y-45.023 I=AC(2.411) J=AC(-4.828)
N430 G3 X18.128 Y-49.024 I=AC(23.221) J=AC(-49.676)
N440 X20.365 Y-51.83 Z-8.1 I=AC(20.607) J=AC(-49.341) TURN=0
N450 G1 X116.992 Y-61.26 F13770
N460 X117.013 Y-61.262 F4590
N470 Z-8.2
N480 Z-8.8
N490 X114.319 Y-63.948
N500 G2 X101.785 Y-74.465 I=AC(50.164) J=AC(-0.212)
N510 G3 X105.354 Y-77.811 I=AC(103.217) J=AC(-76.514)
N520 G1 X113.12 Y-65.014
N530 G3 X114.587 Y-61.174 I=AC(103.449) J=AC(-59.119)
N540 G1 X119.386 Y-38.469
N550 G3 X114.777 Y-36.699 I=AC(116.94) J=AC(-37.952)
N560 G1 X114.47 Y-37.23
N570 G2 X86.163 Y-65.072 I=AC(50.163) J=AC(-0.161)
N580 G1 X69 Y-74.466
N590 G3 X66.712 Y-77.015 I=AC(71.475) J=AC(-78.989)
N600 X70.473 Y-80.007 Z-8.7 I=AC(69.021) J=AC(-77.972) TURN=0
N610 G1 X95.907 Y-61.851 F13770
N620 G3 X115.262 Y-40.874 I=AC(50.694) J=AC(-0.716)
N630 X117.02 Y-34.43 I=AC(103.448) J=AC(-34.19)
N640 G1 X117.014 Y62.548
N650 G3 X110.552 Y74.355 I=AC(102.018) J=AC(62.012)
N660 G1 X101.019 Y81.105
N670 G3 X98.14 Y77.017 Z-8.8 I=AC(99.575) J=AC(79.065) TURN=0 F4590
N680 G1 X101.775 Y74.471
N690 G2 X114.324 Y63.946 I=AC(50.132) J=AC(0.158)
N700 G3 X117.033 Y68.029 I=AC(116.091) J=AC(65.713)
N710 G1 X102.054 Y74.108
N720 G3 X99.831 Y74.66 I=AC(98.23) J=AC(63.449)
N730 G1 X70.049 Y79.428
N740 G3 X68.453 Y74.766 I=AC(69.653) J=AC(76.959)
N750 G1 X68.994 Y74.47
N760 X87.116 Y64.538
N770 G2 X114.466 Y37.238 I=AC(50.096) J=AC(0.1)
N780 G1 X117.018 Y32.863
N790 G3 X121.059 Y35.769 Z-8.7 I=AC(119.178) J=AC(34.122) TURN=0
N800 G1 X107.596 Y51.145 F13770
N810 G3 X88.222 Y66.864 I=AC(50.313) J=AC(0.342)
N820 G1 X72.366 Y75.554
N830 G3 X67.49 Y76.967 I=AC(66.216) J=AC(63.449)
N840 G1 X34.836 Y80.531
N850 G3 X32.287 Y77.016 Z-8.8 I=AC(34.565) J=AC(78.046) TURN=0 F4590
N860 X34.802 Y74.469 I=AC(36.985) J=AC(79.141)
N870 G2 X39.413 Y72.135 I=AC(1.835) J=AC(3.625)
N880 G1 X79.095 Y50.406
N890 G2 X78.361 Y-50.818 I=AC(50.009) J=AC(0.002)
N900 G1 X38.592 Y-72.579
N910 G2 X34.806 Y-74.467 I=AC(1.812) J=AC(-3.592)
N920 G3 X32.286 Y-77.025 I=AC(36.989) J=AC(-79.139)
N930 G2 X29.986 Y-78.499 Z-8.7 I=AC(30.006) J=AC(-76) TURN=0
N940 G1 X-96.726 Y-77.469 F13770
N950 G2 X-98.139 Y-77.017 Z-8.8 I=AC(-96.706) J=AC(-74.969) TURN=0 F4590
N960 G1 X-101.777 Y-74.471
N970 G2 X-114.321 Y-63.95 I=AC(-50.163) J=AC(-0.195)
N980 G3 X-117.041 Y-68.023 I=AC(-116.099) J=AC(-65.707)
N990 G1 X-102.057 Y-74.108
N1000 G3 X-99.833 Y-74.66 I=AC(-98.232) J=AC(-63.449)
N1010 G1 X-70.053 Y-79.428
N1020 G3 X-68.458 Y-74.766 I=AC(-69.658) J=AC(-76.959)
N1030 G1 X-68.999 Y-74.47
N1040 X-87.024 Y-64.596
N1050 G2 X-95.202 Y-59.158 I=AC(-50.583) J=AC(-0.941)
N1060 G3 X-100.588 Y-58.436 I=AC(-98.524) J=AC(-63.495)
N1070 X-99.975 Y-63.229 Z-8.7 I=AC(-99.643) J=AC(-60.751) TURN=0
N1080 G1 X-97.054 Y-63.62
N1090 G3 X-95.202 Y-59.158 Z-8.8 I=AC(-96.722) J=AC(-61.142) TURN=0
N1100 G2 X-114.466 Y-37.246 I=AC(-50.15) J=AC(-0.124)
N1110 G1 X-117.02 Y-32.808
N1120 G2 X-117.353 Y-31.572 Z-8.7 I=AC(-114.853) J=AC(-31.561) TURN=0
N1130 G1 X-117.753 Y59.456 F13770
N1140 G2 X-117.024 Y61.231 Z-8.8 I=AC(-115.253) J=AC(59.467) TURN=0 F4590
N1150 G1 X-114.32 Y63.946
N1160 G2 X-101.786 Y74.465 I=AC(-50.496) J=AC(0.628)
N1170 G3 X-105.344 Y77.819 I=AC(-103.207) J=AC(76.522)
N1180 G1 X-113.121 Y65.013
N1190 G3 X-114.465 Y61.751 I=AC(-103.449) J=AC(59.12)
N1200 G1 X-119.395 Y38.45
N1210 G3 X-114.777 Y36.695 I=AC(-116.949) J=AC(37.932)
N1220 G1 X-114.47 Y37.234
N1230 G2 X-86.163 Y65.072 I=AC(-50.123) J=AC(0.115)
N1240 G1 X-69 Y74.466
N1250 G3 X-66.712 Y77.015 I=AC(-71.475) J=AC(78.989)
N1260 X-70.473 Y80.007 Z-8.7 I=AC(-69.021) J=AC(77.972) TURN=0
N1270 G1 X-95.906 Y61.85 F13770
N1280 G3 X-115.26 Y40.88 I=AC(-50.625) J=AC(0.643)
N1290 X-117.02 Y34.191 I=AC(-103.494) J=AC(34.209)
N1300 G1 X-117.016 Y-34.444
N1310 G3 X-114.566 Y-42.002 I=AC(-103.293) J=AC(-34.171)
N1320 X-88.137 Y-66.919 I=AC(-50.108) J=AC(-0.107)
N1330 G1 X-72.37 Y-75.556
N1340 G3 X-67.496 Y-76.967 I=AC(-66.223) J=AC(-63.449)
N1350 G1 X-34.836 Y-80.531
N1360 G3 X-32.287 Y-77.016 Z-8.8 I=AC(-34.565) J=AC(-78.046) TURN=0 F4590
N1370 X-34.802 Y-74.469 I=AC(-36.985) J=AC(-79.141)
N1380 G2 X-39.41 Y-72.137 I=AC(-1.837) J=AC(-3.63)
N1390 G1 X-78.887 Y-50.531
N1400 G2 X-78.361 Y50.818 I=AC(-50.005) J=AC(-0.005)
N1410 G1 X-38.592 Y72.579
N1420 G2 X-34.806 Y74.467 I=AC(-1.812) J=AC(3.592)
N1430 X-31.249 Y72.144 I=AC(-33.748) J=AC(72.202)
N1440 G1 X-31.485 Y62.069
N1450 G3 X-27.927 Y59.745 I=AC(-28.985) J=AC(62.01)
N1460 G2 X31.605 Y57.884 I=AC(0.001) J=AC(0.02)
N1470 G1 X71.305 Y36.142
N1480 G2 X70.559 Y-36.563 I=AC(50.001) J=AC(0.004)
N1490 G1 X31.031 Y-58.195
N1500 G2 X-31.61 Y-57.881 I=AC(0.001) J=AC(-0.011)
N1510 G1 X-71.226 Y-36.189
N1520 G2 X-70.559 Y36.563 I=AC(-50.004) J=AC(-0.005)
N1530 G1 X-44.168 Y51.008
N1540 G2 X-42.194 Y51.192 I=AC(-42.967) J=AC(48.815)
N1550 G1 X-22.879 Y44.911
N1560 G3 X-21.047 Y45.023 I=AC(-22.106) J=AC(47.288)
N1570 G2 X23.81 Y43.625 I=AC(0.001) J=AC(0.021)
N1580 G1 X63.051 Y22.142
N1590 G2 X62.757 Y-22.309 I=AC(50.002) J=AC(0.002)
N1600 G1 X22.783 Y-44.172
N1610 G2 X-23.81 Y-43.625 I=AC(0.001) J=AC(-0.01)
N1620 G1 X-63.088 Y-22.124
N1630 G2 X-62.757 Y22.309 I=AC(-50) J=AC(-0.004)
N1640 G1 X-22.783 Y44.172
N1650 G2 X-21.047 Y45.023 I=AC(-2.412) J=AC(4.829)
N1660 G3 X-18.127 Y49.025 I=AC(-23.221) J=AC(49.676)
N1670 X-20.365 Y51.83 Z-8.7 I=AC(-20.607) J=AC(49.342) TURN=0
N1680 G1 X-116.992 Y61.24 F13770
N1690 X-117.013 Y61.242 F4590
N1700 Z-8.8
N1710 Z-9.4
N1720 X-114.32 Y63.946
N1730 G2 X-101.786 Y74.465 I=AC(-50.496) J=AC(0.628)
N1740 G3 X-105.344 Y77.819 I=AC(-103.207) J=AC(76.522)
N1750 G1 X-113.121 Y65.013
N1760 G3 X-114.465 Y61.751 I=AC(-103.449) J=AC(59.12)
N1770 G1 X-119.395 Y38.45
N1780 G3 X-114.777 Y36.695 I=AC(-116.949) J=AC(37.932)
N1790 G1 X-114.47 Y37.234
N1800 G2 X-86.163 Y65.072 I=AC(-50.123) J=AC(0.115)
N1810 G1 X-69 Y74.466
N1820 G3 X-66.712 Y77.015 I=AC(-71.475) J=AC(78.989)
N1830 X-70.473 Y80.007 Z-9.3 I=AC(-69.021) J=AC(77.972) TURN=0
N1840 G1 X-95.906 Y61.85 F13770
N1850 G3 X-115.26 Y40.88 I=AC(-50.656) J=AC(0.672)
N1860 X-117.02 Y34.432 I=AC(-103.448) J=AC(34.192)
N1870 G1 X-117.012 Y-62.416
N1880 G3 X-110.451 Y-74.424 I=AC(-102.056) J=AC(-62.041)
N1890 G1 X-101.018 Y-81.106
N1900 G3 X-98.139 Y-77.017 Z-9.4 I=AC(-99.573) J=AC(-79.066) TURN=0 F4590
N1910 G1 X-101.777 Y-74.471
N1920 G2 X-114.321 Y-63.95 I=AC(-50.163) J=AC(-0.195)
N1930 G3 X-117.041 Y-68.023 I=AC(-116.099) J=AC(-65.707)
N1940 G1 X-102.057 Y-74.108
N1950 G3 X-99.833 Y-74.66 I=AC(-98.232) J=AC(-63.449)
N1960 G1 X-70.053 Y-79.428
N1970 G3 X-68.458 Y-74.766 I=AC(-69.658) J=AC(-76.959)
N1980 G1 X-68.999 Y-74.47
N1990 X-87.024 Y-64.596
N2000 G2 X-95.202 Y-59.158 I=AC(-50.583) J=AC(-0.941)
N2010 G3 X-100.588 Y-58.436 I=AC(-98.524) J=AC(-63.495)
N2020 X-99.975 Y-63.229 Z-9.3 I=AC(-99.643) J=AC(-60.751) TURN=0
N2030 G1 X-97.054 Y-63.62
N2040 G3 X-95.202 Y-59.158 Z-9.4 I=AC(-96.722) J=AC(-61.142) TURN=0
N2050 G2 X-114.466 Y-37.246 I=AC(-50.15) J=AC(-0.124)
N2060 G1 X-117.02 Y-32.808
N2070 G3 X-121.071 Y-35.698 Z-9.3 I=AC(-119.187) J=AC(-34.055) TURN=0
N2080 G1 X-107.565 Y-51.179 F13770
N2090 G3 X-88.258 Y-66.852 I=AC(-50.093) J=AC(-0.108)
N2100 G1 X-72.37 Y-75.556
N2110 G3 X-67.496 Y-76.967 I=AC(-66.223) J=AC(-63.449)
N2120 G1 X-34.836 Y-80.531
N2130 G3 X-32.287 Y-77.016 Z-9.4 I=AC(-34.565) J=AC(-78.046) TURN=0 F4590
N2140 X-34.802 Y-74.469 I=AC(-36.985) J=AC(-79.141)
N2150 G2 X-39.41 Y-72.137 I=AC(-1.837) J=AC(-3.63)
N2160 G1 X-78.887 Y-50.531
N2170 G2 X-78.361 Y50.818 I=AC(-50.005) J=AC(-0.005)
N2180 G1 X-38.592 Y72.579
N2190 G2 X-34.806 Y74.467 I=AC(-1.812) J=AC(3.592)
N2200 G3 X-32.286 Y77.025 I=AC(-36.989) J=AC(79.139)
N2210 G2 X-29.986 Y78.499 Z-9.3 I=AC(-30.006) J=AC(76) TURN=0
N2220 G1 X96.726 Y77.47 F13770
N2230 G2 X98.14 Y77.017 Z-9.4 I=AC(96.706) J=AC(74.97) TURN=0 F4590
N2240 G1 X101.775 Y74.471
N2250 G2 X114.324 Y63.946 I=AC(50.132) J=AC(0.158)
N2260 G3 X117.033 Y68.029 I=AC(116.091) J=AC(65.713)
N2270 G1 X102.054 Y74.108
N2280 G3 X99.831 Y74.66 I=AC(98.23) J=AC(63.449)
N2290 G1 X70.049 Y79.428
N2300 G3 X68.453 Y74.766 I=AC(69.653) J=AC(76.959)
N2310 G1 X68.994 Y74.47
N2320 X87.116 Y64.538
N2330 G2 X114.466 Y37.238 I=AC(50.096) J=AC(0.1)
N2340 G1 X117.018 Y32.863
N2350 G2 X117.359 Y31.614 Z-9.3 I=AC(114.859) J=AC(31.603) TURN=0
N2360 G1 X117.758 Y-59.471 F13770
N2370 G2 X117.023 Y-61.252 Z-9.4 I=AC(115.258) J=AC(-59.481) TURN=0 F4590
N2380 G1 X114.319 Y-63.948
N2390 G2 X101.785 Y-74.465 I=AC(50.164) J=AC(-0.212)
N2400 G3 X105.354 Y-77.811 I=AC(103.217) J=AC(-76.514)
N2410 G1 X113.12 Y-65.014
N2420 G3 X114.587 Y-61.174 I=AC(103.449) J=AC(-59.119)
N2430 G1 X119.386 Y-38.469
N2440 G3 X114.777 Y-36.699 I=AC(116.94) J=AC(-37.952)
N2450 G1 X114.47 Y-37.23
N2460 G2 X86.163 Y-65.072 I=AC(50.163) J=AC(-0.161)
N2470 G1 X69 Y-74.466
N2480 G3 X66.712 Y-77.015 I=AC(71.475) J=AC(-78.989)
N2490 X70.473 Y-80.007 Z-9.3 I=AC(69.021) J=AC(-77.972) TURN=0
N2500 G1 X95.907 Y-61.851 F13770
N2510 G3 X115.262 Y-40.874 I=AC(50.663) J=AC(-0.687)
N2520 X117.02 Y-34.189 I=AC(103.494) J=AC(-34.206)
N2530 G1 X117.016 Y34.437
N2540 G3 X114.571 Y41.987 I=AC(103.293) J=AC(34.165)
N2550 X88.347 Y66.795 I=AC(50.165) J=AC(0.169)
N2560 G1 X72.366 Y75.554
N2570 G3 X67.49 Y76.967 I=AC(66.216) J=AC(63.449)
N2580 G1 X34.836 Y80.531
N2590 G3 X32.287 Y77.016 Z-9.4 I=AC(34.565) J=AC(78.046) TURN=0 F4590
N2600 X34.802 Y74.469 I=AC(36.985) J=AC(79.141)
N2610 G2 X39.413 Y72.135 I=AC(1.835) J=AC(3.625)
N2620 G1 X79.095 Y50.406
N2630 G2 X78.361 Y-50.818 I=AC(50.009) J=AC(0.002)
N2640 G1 X38.592 Y-72.579
N2650 G2 X34.806 Y-74.467 I=AC(1.812) J=AC(-3.592)
N2660 X31.249 Y-72.144 I=AC(33.748) J=AC(-72.202)
N2670 G1 X31.485 Y-62.069
N2680 G3 X27.927 Y-59.745 I=AC(28.985) J=AC(-62.01)
N2690 G2 X-31.61 Y-57.881 I=AC(-0.001) J=AC(-0.02)
N2700 G1 X-71.226 Y-36.189
N2710 G2 X-70.559 Y36.563 I=AC(-50.004) J=AC(-0.005)
N2720 G1 X-31.031 Y58.195
N2730 G2 X31.605 Y57.884 I=AC(-0.001) J=AC(0.011)
N2740 G1 X71.305 Y36.142
N2750 G2 X70.559 Y-36.563 I=AC(50.001) J=AC(0.004)
N2760 G1 X44.168 Y-51.008
N2770 G2 X42.194 Y-51.192 I=AC(42.968) J=AC(-48.815)
N2780 G1 X22.879 Y-44.911
N2790 G3 X21.047 Y-45.023 I=AC(22.106) J=AC(-47.288)
N2800 G2 X-23.81 Y-43.625 I=AC(-0.001) J=AC(-0.021)
N2810 G1 X-63.088 Y-22.124
N2820 G2 X-62.757 Y22.309 I=AC(-50) J=AC(-0.004)
N2830 G1 X-22.783 Y44.172
N2840 G2 X23.81 Y43.625 I=AC(-0.001) J=AC(0.01)
N2850 G1 X63.051 Y22.142
N2860 G2 X62.757 Y-22.309 I=AC(50.002) J=AC(0.002)
N2870 G1 X22.783 Y-44.172
N2880 G2 X21.047 Y-45.023 I=AC(2.411) J=AC(-4.828)
N2890 G3 X18.128 Y-49.024 I=AC(23.221) J=AC(-49.676)
N2900 X20.365 Y-51.83 Z-9.3 I=AC(20.607) J=AC(-49.341) TURN=0
N2910 G1 X116.992 Y-61.26 F13770
N2920 X117.013 Y-61.262 F4590
N2930 Z-9.4
N2940 Z-10
N2950 X114.319 Y-63.948
N2960 G2 X101.785 Y-74.465 I=AC(50.164) J=AC(-0.212)
N2970 G3 X105.354 Y-77.811 I=AC(103.217) J=AC(-76.514)
N2980 G1 X113.12 Y-65.014
N2990 G3 X114.587 Y-61.174 I=AC(103.449) J=AC(-59.119)
N3000 G1 X119.386 Y-38.469
N3010 G3 X114.777 Y-36.699 I=AC(116.94) J=AC(-37.952)
N3020 G1 X114.47 Y-37.23
N3030 G2 X86.163 Y-65.072 I=AC(50.163) J=AC(-0.161)
N3040 G1 X69 Y-74.466
N3050 G3 X66.712 Y-77.015 I=AC(71.475) J=AC(-78.989)
N3060 X70.473 Y-80.007 Z-9.9 I=AC(69.021) J=AC(-77.972) TURN=0
N3070 G1 X95.907 Y-61.851 F13770
N3080 G3 X115.262 Y-40.874 I=AC(50.663) J=AC(-0.687)
N3090 X117.02 Y-34.189 I=AC(103.494) J=AC(-34.206)
N3100 G1 X117.014 Y62.548
N3110 G3 X110.552 Y74.355 I=AC(102.018) J=AC(62.012)
N3120 G1 X101.019 Y81.105
N3130 G3 X98.14 Y77.017 Z-10 I=AC(99.575) J=AC(79.065) TURN=0 F4590
N3140 G1 X101.775 Y74.471
N3150 G2 X114.324 Y63.946 I=AC(50.132) J=AC(0.158)
N3160 G3 X117.033 Y68.029 I=AC(116.091) J=AC(65.713)
N3170 G1 X102.054 Y74.108
N3180 G3 X99.831 Y74.66 I=AC(98.23) J=AC(63.449)
N3190 G1 X70.049 Y79.428
N3200 G3 X68.453 Y74.766 I=AC(69.653) J=AC(76.959)
N3210 G1 X68.994 Y74.47
N3220 X87.116 Y64.538
N3230 G2 X114.466 Y37.238 I=AC(50.096) J=AC(0.1)
N3240 G1 X117.018 Y32.863
N3250 G3 X121.059 Y35.769 Z-9.9 I=AC(119.178) J=AC(34.122) TURN=0
N3260 G1 X107.596 Y51.145 F13770
N3270 G3 X88.347 Y66.795 I=AC(50.201) J=AC(0.218)
N3280 G1 X72.366 Y75.554
N3290 G3 X67.49 Y76.967 I=AC(66.216) J=AC(63.449)
N3300 G1 X34.836 Y80.531
N3310 G3 X32.287 Y77.016 Z-10 I=AC(34.565) J=AC(78.046) TURN=0 F4590
N3320 X34.802 Y74.469 I=AC(36.985) J=AC(79.141)
N3330 G2 X39.413 Y72.135 I=AC(1.835) J=AC(3.625)
N3340 G1 X79.095 Y50.406
N3350 G2 X78.361 Y-50.818 I=AC(50.009) J=AC(0.002)
N3360 G1 X38.592 Y-72.579
N3370 G2 X34.806 Y-74.467 I=AC(1.812) J=AC(-3.592)
N3380 G3 X32.286 Y-77.025 I=AC(36.989) J=AC(-79.139)
N3390 G2 X29.986 Y-78.499 Z-9.9 I=AC(30.006) J=AC(-76) TURN=0
N3400 G1 X-96.726 Y-77.469 F13770
N3410 G2 X-98.139 Y-77.017 Z-10 I=AC(-96.706) J=AC(-74.969) TURN=0 F4590
N3420 G1 X-101.777 Y-74.471
N3430 G2 X-114.321 Y-63.95 I=AC(-50.163) J=AC(-0.195)
N3440 G3 X-117.041 Y-68.023 I=AC(-116.099) J=AC(-65.707)
N3450 G1 X-102.057 Y-74.108
N3460 G3 X-99.833 Y-74.66 I=AC(-98.232) J=AC(-63.449)
N3470 G1 X-70.053 Y-79.428
N3480 G3 X-68.458 Y-74.766 I=AC(-69.658) J=AC(-76.959)
N3490 G1 X-68.999 Y-74.47
N3500 X-87.024 Y-64.596
N3510 G2 X-95.202 Y-59.158 I=AC(-50.583) J=AC(-0.941)
N3520 G3 X-100.588 Y-58.436 I=AC(-98.524) J=AC(-63.495)
N3530 X-99.975 Y-63.229 Z-9.9 I=AC(-99.643) J=AC(-60.751) TURN=0
N3540 G1 X-97.054 Y-63.62
N3550 G3 X-95.202 Y-59.158 Z-10 I=AC(-96.722) J=AC(-61.142) TURN=0
N3560 G2 X-114.466 Y-37.246 I=AC(-50.15) J=AC(-0.124)
N3570 G1 X-117.02 Y-32.808
N3580 G2 X-117.353 Y-31.572 Z-9.9 I=AC(-114.853) J=AC(-31.561) TURN=0
N3590 G1 X-117.753 Y59.456 F13770
N3600 G2 X-117.024 Y61.231 Z-10 I=AC(-115.253) J=AC(59.467) TURN=0 F4590
N3610 G1 X-114.32 Y63.946
N3620 G2 X-101.786 Y74.465 I=AC(-50.496) J=AC(0.628)
N3630 G3 X-105.344 Y77.819 I=AC(-103.207) J=AC(76.522)
N3640 G1 X-113.121 Y65.013
N3650 G3 X-114.465 Y61.751 I=AC(-103.449) J=AC(59.12)
N3660 G1 X-119.395 Y38.45
